; generated by PrusaSlicer 2.9.4 on 2026-04-10 at 17:06:50 UTC

; 

; external perimeters extrusion width = 0.42mm
; perimeters extrusion width = 0.44mm
; infill extrusion width = 0.44mm
; solid infill extrusion width = 0.44mm
; top infill extrusion width = 0.40mm
; first layer extrusion width = 0.42mm

M201 X500 Y500 Z100 E5000 ; sets maximum accelerations, mm/sec^2
M203 X500 Y500 Z10 E60 ; sets maximum feedrates, mm / sec
M204 S500 T1000 ; sets acceleration (S) and retract acceleration (R), mm/sec^2
M205 X8.00 Y8.00 Z0.40 E5.00 ; sets the jerk limits, mm/sec
M205 S0 T0 ; sets the minimum extruding and travel feed rate, mm/sec

; printing object gradual overhang test v0 id:0 copy 0
; stop printing object gradual overhang test v0 id:0 copy 0

;TYPE:Custom
G90 ; use absolute coordinates
M83 ; extruder relative mode
M104 S150 ; set temporary nozzle temp to prevent oozing during homing
M140 S60 ; set final bed temp
G4 S30 ; allow partial nozzle warmup
G28 ; home all axis
G1 Z50 F240
G1 X2.0 Y10 F3000
M104 S215 ; set final nozzle temp
M190 S60 ; wait for bed temp to stabilize
M109 S215 ; wait for nozzle temp to stabilize
G1 Z0.28 F240
G92 E0
G1 X2.0 Y140 E10 F1500 ; prime the nozzle
G1 X2.3 Y140 F5000
G92 E0
G1 X2.3 Y10 E10 F1200 ; prime the nozzle
G92 E0
G21 ; set units to millimeters
G90 ; use absolute coordinates
M83 ; use relative distances for extrusion
; Filament gcode
M107
;LAYER_CHANGE
;Z:0.2
;HEIGHT:0.2
G1 E-5 F3600
G1 Z.2 F9000
G1 X89.77 Y102.101
G1 E5 F2400
M204 S500
;TYPE:Skirt/Brim
;WIDTH:0.42
G1 F1200
G1 X91.845 Y101.434 E.08201
G1 X101.845 Y101.434 E.37625
G1 X103.475 Y101.829 E.0631
G1 X104.745 Y102.925 E.06312
G1 X105.411 Y105 E.082
G1 X105.411 Y115 E.37625
G1 X105.016 Y116.63 E.0631
G1 X103.92 Y117.899 E.06309
G1 X101.845 Y118.566 E.08201
G1 X91.845 Y118.566 E.37625
G1 X90.215 Y118.171 E.0631
G1 X88.946 Y117.075 E.06309
G1 X88.279 Y115 E.08201
G1 X88.279 Y105 E.37625
G1 X88.674 Y103.37 E.0631
G1 X89.731 Y102.146 E.06085
G1 X90.027 Y102.424 F9000
G1 F1200
G1 X90.134 Y102.309 E.00591
G1 X91.845 Y101.811 E.06705
G1 X101.845 Y101.811 E.37625
G1 X103.38 Y102.205 E.05963
G1 X104.536 Y103.289 E.05963
G1 X105.034 Y105 E.06705
G1 X105.034 Y115 E.37625
G1 X104.64 Y116.535 E.05963
G1 X103.556 Y117.691 E.05963
G1 X101.845 Y118.189 E.06705
G1 X91.845 Y118.189 E.37625
G1 X90.31 Y117.795 E.05963
G1 X89.154 Y116.711 E.05963
G1 X88.657 Y115 E.06704
G1 X88.657 Y105 E.37625
G1 X89.05 Y103.465 E.05962
G1 X89.986 Y102.468 E.05145
G1 E-3.5 F3600
;WIPE_START
G1 F7200
G1 X90.027 Y102.424 E-.02857
G1 X90.134 Y102.309 E-.07461
G1 X91.845 Y101.811 E-.84645
G1 X93.004 Y101.811 E-.55037
;WIPE_END
; printing object gradual overhang test v0 id:0 copy 0
G1 X92.909 Y106.064 F9000
G1 E5 F2400
;TYPE:Perimeter
;WIDTH:0.419999
G1 F1200
G1 X100.781 Y106.064 E.29618
G1 X100.781 Y113.936 E.29618
G1 X92.909 Y113.936 E.29618
G1 X92.909 Y106.124 E.29393
G1 X92.532 Y105.687 F9000
G1 F1200
G1 X101.158 Y105.687 E.32455
G1 X101.158 Y114.313 E.32455
G1 X92.532 Y114.313 E.32455
G1 X92.532 Y105.747 E.3223
G1 X92.155 Y105.31 F9000
;TYPE:External perimeter
G1 F1200
G1 X101.535 Y105.31 E.35292
G1 X101.535 Y114.69 E.35292
G1 X92.155 Y114.69 E.35292
G1 X92.155 Y105.37 E.35067
G1 E-3.5 F3600
;WIPE_START
G1 F7200
G1 X92.155 Y105.31 E-.0285
G1 X95.253 Y105.31 E-1.4715
;WIPE_END
G1 X100.66 Y106.969 F9000
G1 E5 F2400
;TYPE:Solid infill
;WIDTH:0.430215
G1 F1200
G1 X100.046 Y106.355 E.03356
G1 X99.498 Y106.355 E.02118
G1 X100.491 Y107.347 E.05424
G1 X100.491 Y107.895 E.02118
G1 X98.951 Y106.355 E.08416
G1 X98.403 Y106.355 E.02118
G1 X100.491 Y108.442 E.11409
G1 X100.491 Y108.99 E.02118
G1 X97.855 Y106.355 E.14403
G1 X97.307 Y106.355 E.02118
G1 X100.491 Y109.538 E.17398
G1 X100.491 Y110.085 E.02114
G1 X96.76 Y106.355 E.20388
G1 X96.212 Y106.355 E.02118
G1 X100.491 Y110.633 E.23383
G1 X100.491 Y111.181 E.02118
G1 X95.664 Y106.355 E.26378
G1 X95.117 Y106.355 E.02114
G1 X100.491 Y111.729 E.2937
G1 X100.491 Y112.276 E.02114
G1 X94.569 Y106.355 E.32362
G1 X94.021 Y106.355 E.02118
G1 X100.491 Y112.824 E.35357
G1 X100.491 Y113.372 E.02118
G1 X93.473 Y106.355 E.38352
G1 X93.2 Y106.355 E.01055
G1 X93.2 Y106.628 E.01055
G1 X100.217 Y113.645 E.38349
G1 X99.669 Y113.645 E.02118
G1 X93.2 Y107.176 E.35354
G1 X93.2 Y107.724 E.02118
G1 X99.121 Y113.645 E.32359
G1 X98.573 Y113.645 E.02118
G1 X93.2 Y108.272 E.29364
G1 X93.2 Y108.819 E.02114
G1 X98.026 Y113.645 E.26375
G1 X97.478 Y113.645 E.02118
G1 X93.2 Y109.367 E.2338
G1 X93.2 Y109.915 E.02118
G1 X96.93 Y113.645 E.20385
G1 X96.383 Y113.645 E.02114
G1 X93.2 Y110.462 E.17396
G1 X93.2 Y111.01 E.02118
G1 X95.835 Y113.645 E.14401
G1 X95.287 Y113.645 E.02118
G1 X93.2 Y111.558 E.11406
G1 X93.2 Y112.106 E.02118
G1 X94.739 Y113.645 E.08411
G1 X94.192 Y113.645 E.02114
G1 X93.2 Y112.653 E.05421
G1 X93.2 Y113.201 E.02118
G1 X93.814 Y113.815 E.03356
M106 S127.5
;LAYER_CHANGE
;Z:0.48
;HEIGHT:0.28
;BEFORE_LAYER_CHANGE
G92 E0
;0.48


G1 E-3.5 F3600
;WIPE_START
G1 F7200
G1 X93.2 Y113.201 E-.41246
G1 X93.2 Y112.653 E-.2603
G1 X94.192 Y113.645 E-.66638
G1 X94.531 Y113.645 E-.16086
;WIPE_END
G1 Z.48 F9000
;AFTER_LAYER_CHANGE
;0.48
; stop printing object gradual overhang test v0 id:0 copy 0
G1 X93.814 Y118.566
G1 E5 F2400
;TYPE:Skirt/Brim
;WIDTH:0.42
G1 X91.845 Y118.566 E.099
G1 X90.215 Y118.171 E.08432
G1 X88.946 Y117.075 E.0843
G1 X88.279 Y115 E.10958
G1 X88.279 Y105 E.50277
G1 X88.674 Y103.37 E.08432
G1 X89.77 Y102.101 E.0843
G1 X91.845 Y101.434 E.10958
G1 X101.845 Y101.434 E.50277
G1 X103.475 Y101.829 E.08432
G1 X104.745 Y102.925 E.08434
G1 X105.411 Y105 E.10957
G1 X105.411 Y115 E.50277
G1 X105.016 Y116.63 E.08432
G1 X103.92 Y117.899 E.0843
G1 X101.845 Y118.566 E.10958
G1 X93.874 Y118.566 E.40076
G1 X93.874 Y118.189 F9000
G1 F2400
G1 X91.845 Y118.189 E.10201
G1 X90.31 Y117.795 E.07968
G1 X89.154 Y116.711 E.07968
G1 X88.657 Y115 E.08958
G1 X88.657 Y105 E.50277
G1 X89.05 Y103.465 E.07966
G1 X90.134 Y102.309 E.07968
G1 X91.845 Y101.811 E.08959
G1 X101.845 Y101.811 E.50277
G1 X103.38 Y102.205 E.07968
G1 X104.536 Y103.289 E.07968
G1 X105.034 Y105 E.08959
G1 X105.034 Y115 E.50277
G1 X104.64 Y116.535 E.07968
G1 X103.556 Y117.691 E.07968
G1 X101.845 Y118.189 E.08959
G1 X93.934 Y118.189 E.39774
G1 E-3.5 F3600
;WIPE_START
G1 F7200
G1 X93.874 Y118.189 E-.0285
G1 X91.845 Y118.189 E-.96377
G1 X90.81 Y117.923 E-.50773
;WIPE_END
; printing object gradual overhang test v0 id:0 copy 0
G1 X92.805 Y114.04 F9000
G1 E5 F2400
;TYPE:Perimeter
;WIDTH:0.44
G1 F1800
G1 X92.805 Y105.96 E.42881
G1 X100.885 Y105.96 E.42881
G1 X100.885 Y114.04 E.42881
G1 X92.865 Y114.04 E.42563
G1 X92.425 Y114.42 F9000
G1 F1800
G1 X92.425 Y105.58 E.46915
G1 X101.265 Y105.58 E.46915
G1 X101.265 Y114.42 E.46915
G1 X92.485 Y114.42 E.46596
G1 X92.055 Y114.79 F9000
;TYPE:External perimeter
;WIDTH:0.42
G1 F1800
G1 X92.055 Y105.21 E.48165
G1 X101.635 Y105.21 E.48165
G1 X101.635 Y114.79 E.48165
G1 X92.115 Y114.79 E.47864
G1 E-3.5 F3600
;WIPE_START
G1 F7200
G1 X92.055 Y114.79 E-.0285
G1 X92.055 Y111.692 E-1.4715
;WIPE_END
G1 X93.201 Y106.283 F9000
G1 E5 F2400
;TYPE:Solid infill
;WIDTH:0.532175
G1 F3600
G1 X93.159 Y106.241 E.00392
G1 X93.102 Y106.257 E.0039
G1 X93.087 Y106.314 E.00389
G1 X93.128 Y106.355 E.00382
G1 X93.185 Y106.34 E.00389
;WIDTH:0.44
G1 X93.097 Y106.947 E.03255
G1 X93.792 Y106.252 E.05216
G1 X93.968 Y106.12 E.01168
;WIDTH:0.400089
G1 X93.927 Y106.131 E.00202
G1 X93.908 Y106.06 E.00349
G1 X93.979 Y106.079 E.00349
;WIDTH:0.44
G1 X94.329 Y106.252 E.02072
G1 X93.097 Y107.484 E.09247
G1 X93.097 Y108.022 E.02855
G1 X94.867 Y106.252 E.13284
G1 X95.404 Y106.252 E.0285
G1 X93.097 Y108.559 E.17315
G1 X93.097 Y109.096 E.0285
G1 X95.941 Y106.252 E.21345
G1 X96.478 Y106.252 E.0285
G1 X93.097 Y109.633 E.25376
G1 X93.097 Y110.171 E.02855
G1 X97.016 Y106.252 E.29413
G1 X97.553 Y106.252 E.0285
G1 X93.097 Y110.708 E.33444
G1 X93.097 Y111.245 E.0285
G1 X98.09 Y106.252 E.37474
G1 X98.628 Y106.252 E.02855
G1 X93.097 Y111.782 E.41508
G1 X93.097 Y112.32 E.02855
G1 X99.165 Y106.252 E.45542
G1 X99.702 Y106.252 E.0285
G1 X93.097 Y112.857 E.49573
G1 X93.097 Y113.394 E.0285
G1 X100.239 Y106.252 E.53603
G1 X100.722 Y106.153 E.02617
;WIDTH:0.400089
G1 X100.651 Y106.134 E.00349
G1 X100.67 Y106.205 E.00349
G1 X100.711 Y106.194 E.00202
;WIDTH:0.44
G1 X100.593 Y106.436 E.01429
G1 X93.281 Y113.748 E.54879
G1 X93.039 Y113.866 E.01429
;WIDTH:0.400089
G1 X92.998 Y113.877 E.00202
G1 X92.979 Y113.806 E.00349
G1 X93.05 Y113.825 E.00349
G1 X93.819 Y113.748 F9000
;WIDTH:0.44
G1 F3600
G1 X100.593 Y106.974 E.50841
G1 X100.593 Y107.511 E.0285
G1 X94.356 Y113.748 E.46811
G1 X94.893 Y113.748 E.0285
G1 X100.593 Y108.048 E.4278
G1 X100.593 Y108.585 E.0285
G1 X95.43 Y113.748 E.3875
G1 X95.968 Y113.748 E.02855
G1 X100.593 Y109.123 E.34712
G1 X100.593 Y109.66 E.0285
G1 X96.505 Y113.748 E.30682
G1 X97.042 Y113.748 E.0285
G1 X100.593 Y110.197 E.26651
G1 X100.593 Y110.734 E.0285
G1 X97.58 Y113.748 E.22617
G1 X98.117 Y113.748 E.0285
G1 X100.593 Y111.272 E.18583
G1 X100.593 Y111.809 E.0285
G1 X98.654 Y113.748 E.14553
G1 E-3.5
;WIPE_START
G1 F7200
G1 X100.593 Y111.809 E-1.30253
G1 X100.593 Y111.393 E-.19747
;WIPE_END
G1 X100.458 Y112.481 F9000
G1 E5 F2400
G1 F3600
G1 X99.191 Y113.748 E.09509
G1 X100.593 Y113.748 E.07441
G1 X100.593 Y112.346 E.07441
G1 X100.236 Y113.323 F9000
;WIDTH:0.501056
G1 F3600
G1 X100.197 Y113.284 E.0034
G1 X100.143 Y113.298 E.00344
G1 X100.129 Y113.351 E.00338
G1 X100.168 Y113.39 E.0034
G1 X100.221 Y113.376 E.00338
M106 S255
;LAYER_CHANGE
;Z:0.76
;HEIGHT:0.28
;BEFORE_LAYER_CHANGE
G92 E0
;0.76


G1 E-3.5 F3600
;WIPE_START
G1 F7200
G1 X100.168 Y113.39 E-.02604
G1 X100.129 Y113.351 E-.0262
G1 X100.143 Y113.298 E-.02604
G1 X100.197 Y113.284 E-.0265
G1 X100.236 Y113.323 E-.0262
;WIPE_END
G1 E-1.36902 F3600
G1 Z.76 F9000
;AFTER_LAYER_CHANGE
;0.76
G1 X100.885 Y114.04
G1 E5 F2400
;TYPE:Perimeter
;WIDTH:0.44
G1 F1693
G1 X92.805 Y114.04 E.42881
G1 X92.805 Y105.96 E.42881
G1 X100.885 Y105.96 E.42881
G1 X100.885 Y113.98 E.42563
G1 X101.265 Y114.42 F9000
G1 F1693
G1 X92.425 Y114.42 E.46915
G1 X92.425 Y105.58 E.46915
G1 X101.265 Y105.58 E.46915
G1 X101.265 Y114.36 E.46596
G1 X101.635 Y114.79 F9000
;TYPE:External perimeter
;WIDTH:0.42
G1 F1693
G1 X92.055 Y114.79 E.48165
G1 X92.055 Y105.21 E.48165
G1 X101.635 Y105.21 E.48165
G1 X101.635 Y114.73 E.47864
G1 E-3.5 F3600
;WIPE_START
G1 F7200
G1 X101.635 Y114.79 E-.0285
G1 X98.537 Y114.79 E-1.4715
;WIPE_END
G1 X93.128 Y113.645 F9000
G1 E5 F2400
;TYPE:Solid infill
;WIDTH:0.532175
G1 F1693
G1 X93.087 Y113.686 E.00382
G1 X93.102 Y113.743 E.00389
G1 X93.159 Y113.759 E.0039
G1 X93.201 Y113.717 E.00392
G1 X93.185 Y113.66 E.0039
;WIDTH:0.44
G1 X93.097 Y113.053 E.03255
G1 X93.792 Y113.748 E.05216
G1 X94.329 Y113.748 E.0285
G1 X93.097 Y112.516 E.09247
G1 X93.097 Y111.978 E.02855
G1 X94.867 Y113.748 E.13284
G1 X95.404 Y113.748 E.0285
G1 X93.097 Y111.441 E.17315
G1 X93.097 Y110.904 E.0285
G1 X95.941 Y113.748 E.21345
G1 X96.478 Y113.748 E.0285
G1 X93.097 Y110.367 E.25376
G1 X93.097 Y109.829 E.02855
G1 X97.016 Y113.748 E.29413
G1 X97.553 Y113.748 E.0285
G1 X93.097 Y109.292 E.33444
G1 X93.097 Y108.755 E.0285
G1 X98.09 Y113.748 E.37474
G1 X98.628 Y113.748 E.02855
G1 X93.097 Y108.218 E.41508
G1 X93.097 Y107.68 E.02855
G1 X99.165 Y113.748 E.45542
G1 X99.702 Y113.748 E.0285
G1 X93.097 Y107.143 E.49573
G1 X93.097 Y106.606 E.0285
G1 X100.239 Y113.748 E.53603
G1 X100.67 Y113.795 E.02301
;WIDTH:0.400089
G1 X100.651 Y113.866 E.00349
G1 X100.722 Y113.847 E.00349
G1 X100.711 Y113.806 E.00202
;WIDTH:0.44
G1 X100.593 Y113.564 E.01429
G1 X93.281 Y106.252 E.54879
G1 X93.039 Y106.134 E.01429
;WIDTH:0.400089
G1 X93.05 Y106.175 E.00202
G1 X92.979 Y106.194 E.00349
G1 X92.998 Y106.123 E.00349
G1 X93.819 Y106.252 F9000
;WIDTH:0.44
G1 F1693
G1 X100.593 Y113.026 E.50841
G1 X100.593 Y112.489 E.0285
G1 X94.356 Y106.252 E.46811
G1 X94.893 Y106.252 E.0285
G1 X100.593 Y111.952 E.4278
G1 X100.593 Y111.415 E.0285
G1 X95.43 Y106.252 E.3875
G1 X95.968 Y106.252 E.02855
G1 X100.593 Y110.877 E.34712
G1 X100.593 Y110.34 E.0285
G1 X96.505 Y106.252 E.30682
G1 X97.042 Y106.252 E.0285
G1 X100.593 Y109.803 E.26651
G1 X100.593 Y109.266 E.0285
G1 X97.58 Y106.252 E.22617
G1 X98.117 Y106.252 E.0285
G1 X100.593 Y108.728 E.18583
G1 X100.593 Y108.191 E.0285
G1 X98.654 Y106.252 E.14553
G1 X100.593 Y106.252 E.1029
G1 X100.593 Y107.654 E.07441
G1 X99.326 Y106.387 E.09509
G1 X100.168 Y106.61 F9000
;WIDTH:0.501056
G1 F1693
G1 X100.129 Y106.649 E.0034
G1 X100.143 Y106.702 E.00338
G1 X100.197 Y106.716 E.00344
G1 X100.236 Y106.677 E.0034
G1 X100.221 Y106.624 E.00339
;LAYER_CHANGE
;Z:1.04
;HEIGHT:0.28
;BEFORE_LAYER_CHANGE
G92 E0
;1.04


G1 E-3.5 F3600
;WIPE_START
G1 F7200
G1 X100.236 Y106.677 E-.02616
G1 X100.197 Y106.716 E-.0262
G1 X100.143 Y106.702 E-.0265
G1 X100.129 Y106.649 E-.02604
G1 X100.168 Y106.61 E-.0262
;WIPE_END
G1 E-1.3689 F3600
G1 Z1.04 F9000
;AFTER_LAYER_CHANGE
;1.04
G1 X100.885 Y105.96
G1 E5 F2400
;TYPE:Perimeter
;WIDTH:0.44
G1 F867
G1 X100.885 Y114.04 E.42881
G1 X92.805 Y114.04 E.42881
G1 X92.805 Y105.96 E.42881
G1 X100.825 Y105.96 E.42563
G1 X101.265 Y105.58 F9000
G1 F867
G1 X101.265 Y114.42 E.46915
G1 X92.425 Y114.42 E.46915
G1 X92.425 Y105.58 E.46915
G1 X101.205 Y105.58 E.46596
G1 X101.635 Y105.21 F9000
;TYPE:External perimeter
;WIDTH:0.42
G1 F867
G1 X101.635 Y114.79 E.48165
G1 X92.055 Y114.79 E.48165
G1 X92.055 Y105.21 E.48165
G1 X101.575 Y105.21 E.47864
G1 E-3.5 F3600
;WIPE_START
G1 F7200
G1 X101.635 Y105.21 E-.0285
G1 X101.635 Y108.308 E-1.4715
;WIPE_END
G1 X94.204 Y106.252 F9000
G1 E5 F2400
;TYPE:Internal infill
;WIDTH:0.44
G1 F867
G1 X93.097 Y106.252 E.05875
G1 X93.097 Y107.425 E.06225
G1 X99.42 Y113.748 E.47456
G1 X99.089 Y113.748 E.01757
G1 X100.593 Y112.244 E.11288
G1 X100.593 Y107.756 E.23818
G1 X99.089 Y106.252 E.11288
G1 X99.42 Y106.252 E.01757
G1 X93.097 Y112.575 E.47456
G1 X93.097 Y113.748 E.06225
G1 X94.204 Y113.748 E.05875
;LAYER_CHANGE
;Z:1.32
;HEIGHT:0.28
;BEFORE_LAYER_CHANGE
G92 E0
;1.32


G1 E-3.5 F3600
;WIPE_START
G1 F7200
G1 X93.097 Y113.748 E-.52582
G1 X93.097 Y112.575 E-.55718
G1 X93.718 Y111.954 E-.417
;WIPE_END
G1 Z1.32 F9000
;AFTER_LAYER_CHANGE
;1.32
G1 X92.805 Y114.04
G1 E5 F2400
;TYPE:Perimeter
;WIDTH:0.44
G1 F865
G1 X92.805 Y105.96 E.42881
G1 X100.885 Y105.96 E.42881
G1 X100.885 Y114.04 E.42881
G1 X92.865 Y114.04 E.42563
G1 X92.425 Y114.42 F9000
G1 F865
G1 X92.425 Y105.58 E.46915
G1 X101.265 Y105.58 E.46915
G1 X101.265 Y114.42 E.46915
G1 X92.485 Y114.42 E.46596
G1 X92.055 Y114.79 F9000
;TYPE:External perimeter
;WIDTH:0.42
G1 F865
G1 X92.055 Y105.21 E.48165
G1 X101.635 Y105.21 E.48165
G1 X101.635 Y114.79 E.48165
G1 X92.115 Y114.79 E.47864
G1 E-3.5 F3600
;WIPE_START
G1 F7200
G1 X92.055 Y114.79 E-.0285
G1 X92.055 Y111.692 E-1.4715
;WIPE_END
G1 X94.204 Y113.748 F9000
G1 E5 F2400
;TYPE:Internal infill
;WIDTH:0.44
G1 F865
G1 X93.097 Y113.748 E.05875
G1 X93.097 Y112.575 E.06225
G1 X99.42 Y106.252 E.47456
G1 X99.089 Y106.252 E.01757
G1 X100.593 Y107.756 E.11288
G1 X100.593 Y112.244 E.23818
G1 X99.089 Y113.748 E.11288
G1 X99.42 Y113.748 E.01757
G1 X93.097 Y107.425 E.47456
G1 X93.097 Y106.252 E.06225
G1 X94.204 Y106.252 E.05875
;LAYER_CHANGE
;Z:1.6
;HEIGHT:0.28
;BEFORE_LAYER_CHANGE
G92 E0
;1.6


G1 E-3.5 F3600
;WIPE_START
G1 F7200
G1 X93.097 Y106.252 E-.52582
G1 X93.097 Y107.425 E-.55718
G1 X93.718 Y108.046 E-.417
;WIPE_END
G1 Z1.6 F9000
;AFTER_LAYER_CHANGE
;1.6
G1 X92.805 Y105.96
G1 E5 F2400
;TYPE:Perimeter
;WIDTH:0.44
G1 F864
G1 X100.885 Y105.96 E.42881
G1 X100.885 Y114.04 E.42881
G1 X92.805 Y114.04 E.42881
G1 X92.805 Y106.02 E.42563
G1 X92.425 Y105.58 F9000
G1 F864
G1 X101.265 Y105.58 E.46915
G1 X101.265 Y114.42 E.46915
G1 X92.425 Y114.42 E.46915
G1 X92.425 Y105.64 E.46596
G1 X92.055 Y105.21 F9000
;TYPE:External perimeter
;WIDTH:0.42
G1 F864
G1 X101.635 Y105.21 E.48165
G1 X101.635 Y114.79 E.48165
G1 X92.055 Y114.79 E.48165
G1 X92.055 Y105.27 E.47864
G1 E-3.5 F3600
;WIPE_START
G1 F7200
G1 X92.055 Y105.21 E-.0285
G1 X95.153 Y105.21 E-1.4715
;WIPE_END
G1 X94.204 Y106.252 F9000
G1 E5 F2400
;TYPE:Internal infill
;WIDTH:0.44
G1 F864
G1 X93.097 Y106.252 E.05875
G1 X93.097 Y107.425 E.06225
