; generated by PrusaSlicer 2.9.4 on 2026-04-10 at 15:42:12 UTC

; 

; external perimeters extrusion width = 0.42mm
; perimeters extrusion width = 0.44mm
; infill extrusion width = 0.44mm
; solid infill extrusion width = 0.44mm
; top infill extrusion width = 0.40mm
; first layer extrusion width = 0.42mm

M201 X500 Y500 Z100 E5000 ; sets maximum accelerations, mm/sec^2
M203 X500 Y500 Z10 E60 ; sets maximum feedrates, mm / sec
M204 S500 T1000 ; sets acceleration (S) and retract acceleration (R), mm/sec^2
M205 X8.00 Y8.00 Z0.40 E5.00 ; sets the jerk limits, mm/sec
M205 S0 T0 ; sets the minimum extruding and travel feed rate, mm/sec

; printing object bike lamp mount v0 id:0 copy 0
; stop printing object bike lamp mount v0 id:0 copy 0

;TYPE:Custom
G90 ; use absolute coordinates
M83 ; extruder relative mode
M104 S150 ; set temporary nozzle temp to prevent oozing during homing
M140 S60 ; set final bed temp
G4 S30 ; allow partial nozzle warmup
G28 ; home all axis
G1 Z50 F240
G1 X2.0 Y10 F3000
M104 S215 ; set final nozzle temp
M190 S60 ; wait for bed temp to stabilize
M109 S215 ; wait for nozzle temp to stabilize
G1 Z0.28 F240
G92 E0
G1 X2.0 Y140 E10 F1500 ; prime the nozzle
G1 X2.3 Y140 F5000
G92 E0
G1 X2.3 Y10 E10 F1200 ; prime the nozzle
G92 E0
G21 ; set units to millimeters
G90 ; use absolute coordinates
M83 ; use relative distances for extrusion
; Filament gcode
M107
;LAYER_CHANGE
;Z:0.2
;HEIGHT:0.2
G1 E-5 F3600
G1 Z.2 F9000
G1 X90.846 Y96.254
G1 E5 F2400
M204 S500
;TYPE:Skirt/Brim
;WIDTH:0.42
G1 F1200
G1 X91.961 Y95.362 E.05372
G1 X93.143 Y94.561 E.05372
G1 X94.384 Y93.854 E.05374
G1 X95.676 Y93.248 E.05369
G1 X97.013 Y92.744 E.05376
G1 X98.628 Y92.289 E.06313
G1 X100.03 Y92.02 E.05371
G1 X102.626 Y91.815 E.09798
G1 X140.811 Y91.828 E1.43672
G1 X142.19 Y92.102 E.0529
G1 X143.113 Y92.526 E.03822
G1 X143.936 Y93.122 E.03823
G1 X144.626 Y93.867 E.03821
G1 X144.974 Y94.387 E.02354
G1 X145.398 Y95.31 E.03822
G1 X145.633 Y96.299 E.03825
G1 X145.687 Y97.001 E.02649
G1 X145.687 Y116.795 E.74475
G1 X145.293 Y118.33 E.05963
G1 X144.209 Y119.486 E.05963
G1 X142.955 Y119.951 E.05032
G1 X86.752 Y128.086 E2.13668
G1 X85.717 Y128.177 E.03909
G1 X84.189 Y128.135 E.05751
G1 X83.019 Y127.957 E.04453
G1 X81.087 Y127.364 E.07604
G1 X79.717 Y126.684 E.05755
G1 X78.076 Y125.505 E.07603
G1 X76.995 Y124.424 E.05752
G1 X75.816 Y122.783 E.07603
G1 X75.273 Y121.731 E.04454
G1 X74.847 Y120.626 E.04456
G1 X74.543 Y119.481 E.04457
G1 X74.365 Y118.311 E.04453
G1 X74.323 Y116.783 E.05751
G1 X74.447 Y115.556 E.0464
G1 X74.926 Y113.643 E.0742
G1 X75.53 Y112.239 E.05751
G1 X76.129 Y111.217 E.04457
G1 X76.835 Y110.267 E.04453
G1 X77.514 Y109.517 E.03807
G1 X90.803 Y96.296 E.7053
G1 E-3.5 F3600
;WIPE_START
G1 F7200
G1 X90.846 Y96.254 E-.02855
G1 X91.961 Y95.362 E-.67825
G1 X93.143 Y94.561 E-.67822
G1 X93.353 Y94.441 E-.11498
;WIPE_END
; printing object bike lamp mount v0 id:0 copy 0
G1 X85.554 Y113.568 F9000
G1 E5 F2400
;TYPE:External perimeter
;WIDTH:0.419999
G1 F1200
G1 X85.843 Y113.59 E.01091
G1 X86.438 Y113.738 E.02307
G1 X87.001 Y113.981 E.02307
G1 X87.515 Y114.314 E.02304
G1 X87.967 Y114.727 E.02304
G1 X88.346 Y115.209 E.02307
G1 X88.64 Y115.747 E.02307
G1 X88.841 Y116.326 E.02306
G1 X88.944 Y116.93 E.02305
G1 X88.947 Y117.542 E.02303
G1 X88.849 Y118.147 E.02306
G1 X88.652 Y118.727 E.02305
G1 X88.363 Y119.267 E.02304
G1 X87.988 Y119.753 E.0231
G1 X87.539 Y120.169 E.02303
G1 X87.028 Y120.507 E.02305
G1 X86.468 Y120.755 E.02304
G1 X85.892 Y120.904 E.02239
G1 X85.265 Y120.961 E.02369
G1 X84.653 Y120.913 E.0231
G1 X84.071 Y120.768 E.02257
G1 X83.497 Y120.521 E.02351
G1 X83.02 Y120.213 E.02136
G1 X82.543 Y119.788 E.02404
G1 X82.193 Y119.346 E.02121
G1 X81.858 Y118.756 E.02553
G1 X81.692 Y118.281 E.01893
G1 X81.553 Y117.573 E.02715
G1 X81.55 Y116.961 E.02303
G1 X81.649 Y116.356 E.02307
G1 X81.845 Y115.775 E.02307
G1 X82.126 Y115.251 E.02237
G1 X82.508 Y114.751 E.02367
G1 X82.958 Y114.333 E.02311
G1 X83.469 Y113.996 E.02303
G1 X84.029 Y113.748 E.02304
G1 X84.623 Y113.595 E.02308
G1 X85.215 Y113.543 E.02236
G1 X85.494 Y113.564 E.01053
G1 E-3.5 F3600
;WIPE_START
G1 F7200
G1 X85.554 Y113.568 E-.02856
G1 X85.843 Y113.59 E-.13767
G1 X86.438 Y113.738 E-.29124
G1 X87.001 Y113.981 E-.29127
G1 X87.515 Y114.314 E-.29091
G1 X87.967 Y114.727 E-.29083
G1 X88.187 Y115.008 E-.16952
;WIPE_END
G1 X132.449 Y104.738 F9000
G1 E5 F2400
G1 F1200
G1 X132.005 Y104.691 E.0168
G1 X110.519 Y104.691 E.80841
G1 X109.825 Y104.739 E.02617
G1 X109.143 Y104.876 E.02617
G1 X108.477 Y105.105 E.0265
G1 X107.856 Y105.414 E.0261
G1 X107.289 Y105.795 E.0257
G1 X106.784 Y106.239 E.0253
G1 X90.515 Y122.506 E.86562
G1 X89.91 Y123.05 E.03061
G1 X89.255 Y123.52 E.03033
G1 X88.554 Y123.916 E.03029
G1 X87.814 Y124.235 E.03032
G1 X87.044 Y124.471 E.0303
G1 X86.253 Y124.623 E.03031
G1 X85.45 Y124.688 E.03031
G1 X84.645 Y124.666 E.0303
G1 X83.847 Y124.558 E.0303
G1 X83.065 Y124.363 E.03032
G1 X82.309 Y124.085 E.03031
G1 X81.587 Y123.728 E.0303
G1 X80.908 Y123.294 E.03032
G1 X80.281 Y122.789 E.03029
G1 X79.711 Y122.219 E.03033
G1 X79.206 Y121.592 E.03029
G1 X78.772 Y120.913 E.03032
G1 X78.415 Y120.191 E.0303
G1 X78.137 Y119.435 E.03031
G1 X77.941 Y118.644 E.03066
G1 X77.834 Y117.855 E.02996
G1 X77.812 Y117.05 E.0303
G1 X77.877 Y116.247 E.03031
G1 X78.032 Y115.447 E.03066
G1 X78.265 Y114.686 E.02994
G1 X78.584 Y113.946 E.03032
G1 X78.98 Y113.245 E.03029
G1 X79.45 Y112.59 E.03033
G1 X79.994 Y111.985 E.03061
G1 X92.36 Y99.618 E.65802
G1 X93.211 Y98.831 E.04361
G1 X94.117 Y98.117 E.0434
G1 X95.076 Y97.476 E.0434
G1 X96.083 Y96.913 E.04341
G1 X97.13 Y96.43 E.04338
G1 X98.212 Y96.031 E.04339
G1 X99.322 Y95.718 E.04339
G1 X100.454 Y95.493 E.04342
G1 X101.599 Y95.357 E.04338
G1 X102.758 Y95.311 E.04364
G1 X140.395 Y95.312 E1.4161
G1 X140.828 Y95.345 E.01634
G1 X141.291 Y95.519 E.01861
G1 X141.693 Y95.807 E.01861
G1 X141.981 Y96.209 E.01861
G1 X142.155 Y96.672 E.01861
G1 X142.189 Y97.105 E.01634
G1 X142.189 Y115.632 E.69708
G1 X134.309 Y115.632 E.29649
G1 X134.309 Y106.995 E.32497
G1 X134.267 Y106.569 E.01611
G1 X134.139 Y106.135 E.01702
G1 X133.919 Y105.72 E.01767
G1 X133.645 Y105.381 E.0164
G1 X133.297 Y105.091 E.01704
G1 X132.9 Y104.875 E.017
G1 X132.507 Y104.752 E.01549
G1 E-3.5 F3600
;WIPE_START
G1 F7200
G1 X132.449 Y104.738 E-.02834
G1 X132.005 Y104.691 E-.21208
G1 X129.353 Y104.691 E-1.25958
;WIPE_END
G1 X142.068 Y97.129 F9000
G1 E5 F2400
;TYPE:Solid infill
;WIDTH:0.420493
G1 F1200
G1 X140.549 Y95.61 E.08093
G1 X140.007 Y95.602 E.02042
G1 X141.898 Y97.493 E.10075
G1 X141.898 Y98.027 E.02012
G1 X139.473 Y95.602 E.1292
G1 X138.939 Y95.602 E.02012
G1 X141.898 Y98.561 E.15765
G1 X141.898 Y99.095 E.02012
G1 X138.405 Y95.602 E.18611
G1 X137.871 Y95.602 E.02012
G1 X141.898 Y99.629 E.21456
G1 X141.898 Y100.163 E.02012
G1 X137.337 Y95.602 E.24301
G1 X136.803 Y95.602 E.02012
G1 X141.898 Y100.697 E.27146
G1 X141.898 Y101.231 E.02012
G1 X136.269 Y95.602 E.29991
G1 X135.735 Y95.602 E.02012
G1 X141.898 Y101.765 E.32836
G1 X141.898 Y102.299 E.02012
G1 X135.202 Y95.602 E.35679
G1 X134.668 Y95.602 E.02012
G1 X141.898 Y102.833 E.38524
G1 X141.898 Y103.367 E.02012
G1 X134.134 Y95.602 E.41369
G1 X133.6 Y95.602 E.02012
G1 X141.898 Y103.9 E.44211
G1 X141.898 Y104.434 E.02012
G1 X133.066 Y95.602 E.47057
G1 X132.532 Y95.602 E.02012
G1 X141.898 Y104.968 E.49902
G1 X141.898 Y105.502 E.02012
G1 X131.998 Y95.602 E.52747
G1 X131.464 Y95.602 E.02012
G1 X141.898 Y106.036 E.55592
G1 X141.898 Y106.57 E.02012
G1 X130.93 Y95.602 E.58437
G1 X130.396 Y95.602 E.02012
G1 X141.898 Y107.104 E.61282
G1 X141.898 Y107.638 E.02012
G1 X129.862 Y95.602 E.64127
G1 X129.328 Y95.602 E.02012
G1 X141.898 Y108.172 E.66972
G1 X141.898 Y108.706 E.02012
G1 X128.794 Y95.602 E.69818
G1 X128.26 Y95.602 E.02012
G1 X141.898 Y109.24 E.72663
G1 X141.898 Y109.774 E.02012
G1 X127.726 Y95.602 E.75508
G1 X127.192 Y95.602 E.02012
G1 X141.898 Y110.308 E.78353
G1 X141.898 Y110.842 E.02012
G1 X126.658 Y95.602 E.81198
G1 X126.124 Y95.602 E.02012
G1 X141.898 Y111.376 E.84043
G1 X141.898 Y111.91 E.02012
G1 X125.59 Y95.602 E.86888
G1 X125.056 Y95.602 E.02012
G1 X141.898 Y112.444 E.89734
G1 X141.898 Y112.978 E.02012
G1 X124.522 Y95.602 E.92579
G1 X123.988 Y95.602 E.02012
G1 X132.986 Y104.6 E.47941
G1 X133.469 Y104.857 E.02061
G1 X133.81 Y105.137 E.01662
G1 X134.128 Y105.513 E.01855
G1 X134.397 Y106.011 E.02132
G1 X141.898 Y113.512 E.39965
G1 X141.898 Y114.046 E.02012
G1 X134.573 Y106.721 E.39027
G1 X134.599 Y106.991 E.01022
G1 X134.599 Y107.281 E.01093
G1 X141.898 Y114.58 E.38889
G1 X141.898 Y115.114 E.02012
G1 X134.599 Y107.815 E.38889
G1 X134.599 Y108.348 E.02008
G1 X141.592 Y115.341 E.37258
G1 X141.058 Y115.341 E.02012
G1 X134.599 Y108.882 E.34413
G1 X134.599 Y109.416 E.02012
G1 X140.524 Y115.341 E.31568
G1 X139.99 Y115.341 E.02012
G1 X134.599 Y109.95 E.28723
G1 X134.599 Y110.484 E.02012
G1 X139.456 Y115.341 E.25878
G1 X138.922 Y115.341 E.02012
G1 X134.599 Y111.018 E.23033
G1 X134.599 Y111.552 E.02012
G1 X138.388 Y115.341 E.20188
G1 X137.854 Y115.341 E.02012
G1 X134.599 Y112.086 E.17343
G1 X134.599 Y112.62 E.02012
G1 X137.32 Y115.341 E.14497
G1 X136.786 Y115.341 E.02012
G1 X134.599 Y113.154 E.11652
G1 X134.599 Y113.688 E.02012
G1 X136.252 Y115.341 E.08807
G1 X135.718 Y115.341 E.02012
G1 X134.599 Y114.222 E.05962
G1 X134.599 Y114.756 E.02012
G1 X135.184 Y115.341 E.03117
G1 X134.65 Y115.341 E.02012
G1 X134.429 Y115.12 E.01177
G1 E-3.5 F3600
;WIPE_START
G1 F7200
G1 X134.65 Y115.341 E-.14846
G1 X135.184 Y115.341 E-.25365
G1 X134.599 Y114.756 E-.39297
G1 X134.599 Y114.222 E-.25365
G1 X135.271 Y114.894 E-.45127
;WIPE_END
G1 X132.475 Y104.623 F9000
G1 E5 F2400
G1 F1200
G1 X123.454 Y95.602 E.48064
G1 X122.92 Y95.602 E.02012
G1 X131.719 Y104.401 E.46881
G1 X131.185 Y104.401 E.02012
G1 X122.386 Y95.602 E.46881
G1 X121.852 Y95.602 E.02012
G1 X130.652 Y104.401 E.46883
G1 X130.118 Y104.401 E.02012
G1 X121.318 Y95.602 E.46883
G1 X120.784 Y95.602 E.02012
G1 X129.584 Y104.401 E.46883
G1 X129.05 Y104.401 E.02012
G1 X120.25 Y95.602 E.46883
G1 X119.716 Y95.602 E.02012
G1 X128.516 Y104.401 E.46883
G1 X127.982 Y104.401 E.02012
G1 X119.182 Y95.602 E.46883
G1 X118.648 Y95.602 E.02012
G1 X127.448 Y104.401 E.46883
G1 X126.914 Y104.401 E.02012
G1 X118.114 Y95.602 E.46883
G1 X117.581 Y95.602 E.02008
G1 X126.38 Y104.401 E.46881
G1 X125.846 Y104.401 E.02012
G1 X117.047 Y95.602 E.46881
G1 X116.513 Y95.602 E.02012
G1 X125.312 Y104.401 E.46881
G1 X124.778 Y104.401 E.02012
G1 X115.979 Y95.602 E.46881
G1 X115.445 Y95.602 E.02012
G1 X124.244 Y104.401 E.46881
G1 X123.71 Y104.401 E.02012
G1 X114.911 Y95.602 E.46881
G1 X114.377 Y95.602 E.02012
G1 X123.176 Y104.401 E.46881
G1 X122.642 Y104.401 E.02012
G1 X113.843 Y95.602 E.46881
G1 X113.309 Y95.602 E.02012
G1 X122.108 Y104.401 E.46881
G1 X121.574 Y104.401 E.02012
G1 X112.775 Y95.602 E.46881
G1 X112.241 Y95.602 E.02012
G1 X121.04 Y104.401 E.46881
G1 X120.506 Y104.401 E.02012
G1 X111.707 Y95.602 E.46881
G1 X111.173 Y95.602 E.02012
G1 X119.972 Y104.401 E.46881
G1 X119.438 Y104.401 E.02012
G1 X110.639 Y95.602 E.46881
G1 X110.105 Y95.602 E.02012
G1 X118.904 Y104.401 E.46881
G1 X118.37 Y104.401 E.02012
G1 X109.571 Y95.602 E.46881
G1 X109.037 Y95.602 E.02012
G1 X117.836 Y104.401 E.46881
G1 X117.302 Y104.401 E.02012
G1 X108.503 Y95.602 E.46881
G1 X107.969 Y95.602 E.02012
G1 X116.768 Y104.401 E.46881
G1 X116.234 Y104.401 E.02012
G1 X107.435 Y95.602 E.46881
G1 X106.901 Y95.602 E.02012
G1 X115.7 Y104.401 E.46881
G1 X115.166 Y104.401 E.02012
G1 X106.367 Y95.602 E.46881
G1 X105.833 Y95.602 E.02012
G1 X114.632 Y104.401 E.46881
G1 X114.098 Y104.401 E.02012
G1 X105.299 Y95.602 E.46881
G1 X104.765 Y95.602 E.02012
G1 X113.565 Y104.401 E.46883
G1 X113.031 Y104.401 E.02012
G1 X104.231 Y95.602 E.46883
G1 X103.697 Y95.602 E.02012
G1 X112.497 Y104.401 E.46883
G1 X111.963 Y104.401 E.02012
G1 X103.163 Y95.602 E.46883
G1 X102.638 Y95.61 E.01978
G1 X111.429 Y104.401 E.46838
G1 X110.895 Y104.401 E.02012
G1 X102.122 Y95.629 E.4674
G1 X101.608 Y95.648 E.01938
G1 X110.37 Y104.411 E.46686
G1 X109.869 Y104.443 E.01891
G1 X101.13 Y95.705 E.46558
G1 X100.653 Y95.761 E.01809
G1 X109.418 Y104.527 E.46702
G1 X108.982 Y104.624 E.01683
G1 X100.197 Y95.84 E.46803
G1 X99.752 Y95.928 E.01709
G1 X108.585 Y104.762 E.47065
G1 X108.354 Y104.842 E.00921
G1 X108.206 Y104.916 E.00623
G1 X99.312 Y96.022 E.47387
G1 X98.895 Y96.14 E.01633
G1 X107.85 Y105.094 E.47709
G1 X107.516 Y105.294 E.01467
G1 X98.479 Y96.257 E.48149
G1 X98.078 Y96.39 E.01592
G1 X107.197 Y105.509 E.48586
G1 X106.902 Y105.748 E.0143
G1 X97.688 Y96.534 E.49092
G1 X97.298 Y96.678 E.01566
G1 X106.618 Y105.998 E.49657
G1 X106.349 Y106.263 E.01423
G1 X96.928 Y96.843 E.50192
G1 X96.563 Y97.011 E.01514
G1 X106.082 Y106.53 E.50717
G1 X105.815 Y106.797 E.01423
G1 X96.199 Y97.181 E.51234
G1 X95.856 Y97.372 E.01479
G1 X105.548 Y107.064 E.51639
G1 X105.281 Y107.331 E.01423
G1 X95.514 Y97.564 E.52038
G1 X95.175 Y97.759 E.01473
G1 X105.014 Y107.598 E.52422
G1 X104.747 Y107.865 E.01423
G1 X94.855 Y97.973 E.52704
G1 X94.535 Y98.187 E.0145
G1 X104.48 Y108.132 E.52987
G1 X104.213 Y108.399 E.01423
G1 X94.22 Y98.406 E.53242
G1 X93.921 Y98.641 E.01433
G1 X103.946 Y108.666 E.53413
G1 X103.679 Y108.933 E.01423
G1 X93.623 Y98.877 E.53578
G1 X93.33 Y99.117 E.01427
G1 X103.412 Y109.2 E.53719
G1 X103.145 Y109.467 E.01423
G1 X93.052 Y99.374 E.53775
G1 X92.775 Y99.63 E.01421
G1 X102.878 Y109.734 E.53831
G1 X102.611 Y110.001 E.01423
G1 X92.5 Y99.889 E.53874
G1 X92.233 Y100.156 E.01423
G1 X102.344 Y110.268 E.53874
G1 X102.077 Y110.535 E.01423
G1 X91.966 Y100.423 E.53874
G1 X91.699 Y100.69 E.01423
G1 X101.81 Y110.802 E.53874
G1 X101.543 Y111.069 E.01423
G1 X91.432 Y100.957 E.53874
G1 X91.165 Y101.224 E.01423
G1 X101.276 Y111.336 E.53874
G1 X101.009 Y111.603 E.01423
G1 X90.898 Y101.491 E.53874
G1 X90.631 Y101.758 E.01423
G1 X100.742 Y111.87 E.53874
G1 X100.475 Y112.137 E.01423
G1 X90.364 Y102.025 E.53874
G1 X90.097 Y102.292 E.01423
G1 X100.208 Y112.404 E.53874
G1 X99.941 Y112.671 E.01423
G1 X89.83 Y102.559 E.53874
G1 X89.563 Y102.826 E.01423
G1 X99.674 Y112.938 E.53874
G1 X99.407 Y113.205 E.01423
G1 X89.296 Y103.093 E.53874
G1 X89.029 Y103.36 E.01423
G1 X99.14 Y113.472 E.53874
G1 X98.873 Y113.739 E.01423
G1 X88.762 Y103.627 E.53874
G1 X88.495 Y103.894 E.01423
G1 X98.606 Y114.006 E.53874
G1 X98.339 Y114.273 E.01423
G1 X88.228 Y104.161 E.53874
G1 X87.961 Y104.428 E.01423
G1 X98.072 Y114.539 E.53871
G1 X97.805 Y114.806 E.01423
G1 X87.694 Y104.695 E.53871
G1 X87.427 Y104.962 E.01423
G1 X97.538 Y115.073 E.53871
G1 X97.271 Y115.34 E.01423
G1 X87.16 Y105.229 E.53871
G1 X86.893 Y105.496 E.01423
G1 X97.004 Y115.607 E.53871
G1 X96.737 Y115.874 E.01423
G1 X86.626 Y105.763 E.53871
G1 X86.359 Y106.03 E.01423
G1 X96.47 Y116.141 E.53871
G1 X96.203 Y116.408 E.01423
G1 X86.092 Y106.297 E.53871
G1 X85.825 Y106.564 E.01423
G1 X95.936 Y116.675 E.53871
G1 X95.669 Y116.942 E.01423
G1 X85.558 Y106.831 E.53871
G1 X85.291 Y107.098 E.01423
G1 X95.402 Y117.209 E.53871
G1 X95.135 Y117.476 E.01423
G1 X85.024 Y107.365 E.53871
G1 X84.757 Y107.632 E.01423
G1 X94.868 Y117.743 E.53871
G1 X94.601 Y118.01 E.01423
G1 X84.49 Y107.899 E.53871
G1 X84.223 Y108.166 E.01423
G1 X94.334 Y118.277 E.53871
G1 X94.067 Y118.544 E.01423
G1 X83.956 Y108.433 E.53871
G1 X83.689 Y108.7 E.01423
G1 X93.8 Y118.811 E.53871
G1 X93.533 Y119.078 E.01423
G1 X83.422 Y108.967 E.53871
G1 X83.155 Y109.234 E.01423
G1 X93.266 Y119.345 E.53871
G1 X92.999 Y119.612 E.01423
G1 X88.775 Y115.388 E.22505
G1 X88.614 Y115.09 E.01276
G1 X88.213 Y114.566 E.02486
G1 X87.731 Y114.115 E.02487
G1 X87.18 Y113.749 E.02492
G1 X87.102 Y113.714 E.00322
G1 X82.888 Y109.501 E.22449
G1 X82.621 Y109.768 E.01423
G1 X86.245 Y113.391 E.19306
G1 X85.873 Y113.301 E.01442
G1 X85.601 Y113.281 E.01028
G1 X82.354 Y110.035 E.17297
G1 X82.087 Y110.302 E.01423
G1 X85.052 Y113.266 E.15795
G1 X84.563 Y113.311 E.0185
G1 X81.82 Y110.569 E.14612
G1 X81.553 Y110.836 E.01423
G1 X84.136 Y113.418 E.13759
G1 X83.98 Y113.458 E.00607
G1 X83.743 Y113.56 E.00972
G1 X81.286 Y111.103 E.13091
G1 X81.019 Y111.37 E.01423
G1 X83.37 Y113.72 E.12523
G1 X83.045 Y113.929 E.01456
