; generated by PrusaSlicer 2.9.4 on 2026-04-10 at 15:28:40 UTC

; 

; external perimeters extrusion width = 0.42mm
; perimeters extrusion width = 0.44mm
; infill extrusion width = 0.44mm
; solid infill extrusion width = 0.44mm
; top infill extrusion width = 0.40mm
; first layer extrusion width = 0.42mm

M201 X500 Y500 Z100 E5000 ; sets maximum accelerations, mm/sec^2
M203 X500 Y500 Z10 E60 ; sets maximum feedrates, mm / sec
M204 S500 T1000 ; sets acceleration (S) and retract acceleration (R), mm/sec^2
M205 X8.00 Y8.00 Z0.40 E5.00 ; sets the jerk limits, mm/sec
M205 S0 T0 ; sets the minimum extruding and travel feed rate, mm/sec

; printing object (Unsaved) id:0 copy 0
; stop printing object (Unsaved) id:0 copy 0

;TYPE:Custom
G90 ; use absolute coordinates
M83 ; extruder relative mode
M104 S150 ; set temporary nozzle temp to prevent oozing during homing
M140 S60 ; set final bed temp
G4 S30 ; allow partial nozzle warmup
G28 ; home all axis
G1 Z50 F240
G1 X2.0 Y10 F3000
M104 S215 ; set final nozzle temp
M190 S60 ; wait for bed temp to stabilize
M109 S215 ; wait for nozzle temp to stabilize
G1 Z0.28 F240
G92 E0
G1 X2.0 Y140 E10 F1500 ; prime the nozzle
G1 X2.3 Y140 F5000
G92 E0
G1 X2.3 Y10 E10 F1200 ; prime the nozzle
G92 E0
G21 ; set units to millimeters
G90 ; use absolute coordinates
M83 ; use relative distances for extrusion
; Filament gcode
M107
;LAYER_CHANGE
;Z:0.2
;HEIGHT:0.2
G1 E-5 F3600
G1 Z.2 F9000
G1 X93.518 Y89.189
G1 E5 F2400
M204 S500
;TYPE:Skirt/Brim
;WIDTH:0.42
G1 F1200
G1 X95.593 Y88.523 E.082
G1 X111.24 Y88.523 E.58872
G1 X112.87 Y88.917 E.0631
G1 X114.139 Y90.013 E.06309
G1 X114.806 Y92.088 E.08201
G1 X114.806 Y107.735 E.58872
G1 X114.411 Y109.365 E.0631
G1 X113.315 Y110.635 E.06312
G1 X111.24 Y111.301 E.082
G1 X95.593 Y111.301 E.58872
G1 X93.963 Y110.906 E.0631
G1 X92.694 Y109.811 E.06306
G1 X92.028 Y107.735 E.08203
G1 X92.028 Y92.088 E.58872
G1 X92.422 Y90.458 E.0631
G1 X93.479 Y89.234 E.06085
G1 X93.775 Y89.512 F9000
G1 F1200
G1 X93.882 Y89.398 E.00588
G1 X95.593 Y88.9 E.06705
G1 X111.24 Y88.9 E.58872
G1 X112.775 Y89.294 E.05963
G1 X113.931 Y90.378 E.05963
G1 X114.429 Y92.088 E.06701
G1 X114.429 Y107.735 E.58872
G1 X114.035 Y109.27 E.05963
G1 X112.951 Y110.426 E.05963
G1 X111.24 Y110.924 E.06705
G1 X95.593 Y110.924 E.58872
G1 X94.058 Y110.53 E.05963
G1 X92.903 Y109.446 E.0596
G1 X92.405 Y107.735 E.06705
G1 X92.405 Y92.088 E.58872
G1 X92.798 Y90.554 E.05958
G1 X93.734 Y89.556 E.05148
G1 E-3.5 F3600
;WIPE_START
G1 F7200
G1 X93.775 Y89.512 E-.02857
G1 X93.882 Y89.398 E-.07427
G1 X95.593 Y88.9 E-.84645
G1 X96.752 Y88.9 E-.55071
;WIPE_END
; printing object (Unsaved) id:0 copy 0
G1 X95.903 Y92.398 F9000
G1 E5 F2400
;TYPE:External perimeter
;WIDTH:0.419999
G1 F1200
G1 X110.93 Y92.398 E.56539
G1 X110.93 Y107.425 E.56539
G1 X95.903 Y107.425 E.56539
G1 X95.903 Y92.458 E.56313
G1 E-3.5 F3600
;WIPE_START
G1 F7200
G1 X95.903 Y92.398 E-.0285
G1 X99.001 Y92.398 E-1.4715
;WIPE_END
G1 X110.809 Y93.29 F9000
G1 E5 F2400
;TYPE:Solid infill
;WIDTH:0.424067
G1 F1200
G1 X110.208 Y92.689 E.03232
G1 X109.669 Y92.689 E.0205
G1 X110.64 Y93.659 E.0522
G1 X110.64 Y94.198 E.0205
G1 X109.13 Y92.689 E.08119
G1 X108.591 Y92.689 E.0205
G1 X110.64 Y94.737 E.11018
G1 X110.64 Y95.276 E.0205
G1 X108.052 Y92.689 E.13917
G1 X107.513 Y92.689 E.0205
G1 X110.64 Y95.815 E.16816
G1 X110.64 Y96.354 E.0205
G1 X106.974 Y92.689 E.19715
G1 X106.435 Y92.689 E.0205
G1 X110.64 Y96.893 E.22613
G1 X110.64 Y97.432 E.0205
G1 X105.896 Y92.689 E.25512
G1 X105.357 Y92.689 E.0205
G1 X110.64 Y97.972 E.28414
G1 X110.64 Y98.511 E.0205
G1 X104.818 Y92.689 E.31313
G1 X104.279 Y92.689 E.0205
G1 X110.64 Y99.05 E.34212
G1 X110.64 Y99.589 E.0205
G1 X103.74 Y92.689 E.37111
G1 X103.201 Y92.689 E.0205
G1 X110.64 Y100.128 E.4001
G1 X110.64 Y100.667 E.0205
G1 X102.662 Y92.689 E.42909
G1 X102.123 Y92.689 E.0205
G1 X110.64 Y101.206 E.45808
G1 X110.64 Y101.745 E.0205
G1 X101.584 Y92.689 E.48707
G1 X101.045 Y92.689 E.0205
G1 X110.64 Y102.284 E.51606
G1 X110.64 Y102.823 E.0205
G1 X100.506 Y92.689 E.54505
G1 X99.967 Y92.689 E.0205
G1 X110.64 Y103.362 E.57404
G1 X110.64 Y103.901 E.0205
G1 X99.428 Y92.689 E.60303
G1 X98.889 Y92.689 E.0205
G1 X110.64 Y104.44 E.63202
G1 X110.64 Y104.979 E.0205
G1 X98.35 Y92.689 E.661
G1 X97.811 Y92.689 E.0205
G1 X110.64 Y105.518 E.68999
G1 X110.64 Y106.057 E.0205
G1 X97.272 Y92.689 E.71898
G1 X96.733 Y92.689 E.0205
G1 X110.64 Y106.596 E.74797
G1 X110.64 Y107.135 E.0205
G1 X96.194 Y92.689 E.77696
G1 X96.194 Y93.228 E.0205
G1 X110.101 Y107.135 E.74797
G1 X109.562 Y107.135 E.0205
G1 X96.194 Y93.767 E.71898
G1 X96.194 Y94.306 E.0205
G1 X109.023 Y107.135 E.68999
G1 X108.484 Y107.135 E.0205
G1 X96.194 Y94.845 E.661
G1 X96.194 Y95.384 E.0205
G1 X107.945 Y107.135 E.63202
G1 X107.406 Y107.135 E.0205
G1 X96.194 Y95.923 E.60303
G1 X96.194 Y96.462 E.0205
G1 X106.866 Y107.135 E.57401
G1 X106.327 Y107.135 E.0205
G1 X96.194 Y97.001 E.54502
G1 X96.194 Y97.54 E.0205
G1 X105.788 Y107.135 E.51603
G1 X105.249 Y107.135 E.0205
G1 X96.194 Y98.079 E.48704
G1 X96.194 Y98.618 E.0205
G1 X104.71 Y107.135 E.45805
G1 X104.171 Y107.135 E.0205
G1 X96.194 Y99.157 E.42906
G1 X96.194 Y99.696 E.0205
G1 X103.632 Y107.135 E.40007
G1 X103.093 Y107.135 E.0205
G1 X96.194 Y100.235 E.37108
G1 X96.194 Y100.774 E.0205
G1 X102.554 Y107.135 E.34209
G1 X102.015 Y107.135 E.0205
G1 X96.194 Y101.313 E.3131
G1 X96.194 Y101.852 E.0205
G1 X101.476 Y107.135 E.28411
G1 X100.937 Y107.135 E.0205
G1 X96.194 Y102.391 E.25512
G1 X96.194 Y102.93 E.0205
G1 X100.398 Y107.135 E.22613
G1 X99.859 Y107.135 E.0205
G1 X96.194 Y103.469 E.19715
G1 X96.194 Y104.008 E.0205
G1 X99.32 Y107.135 E.16816
G1 X98.781 Y107.135 E.0205
G1 X96.194 Y104.547 E.13917
G1 X96.194 Y105.086 E.0205
G1 X98.242 Y107.135 E.11018
G1 X97.703 Y107.135 E.0205
G1 X96.194 Y105.625 E.08119
G1 X96.194 Y106.164 E.0205
G1 X97.164 Y107.135 E.0522
G1 X96.625 Y107.135 E.0205
G1 X96.024 Y106.534 E.03232
M106 S127.5
;LAYER_CHANGE
;Z:0.48
;HEIGHT:0.28
;BEFORE_LAYER_CHANGE
G92 E0
;0.48


G1 E-3.5 F3600
;WIPE_START
G1 F7200
G1 X96.625 Y107.135 E-.40372
G1 X97.164 Y107.135 E-.25603
G1 X96.194 Y106.164 E-.65193
G1 X96.194 Y105.768 E-.18832
;WIPE_END
G1 Z.48 F9000
;AFTER_LAYER_CHANGE
;0.48
; stop printing object (Unsaved) id:0 copy 0
G1 X92.028 Y106.534
G1 E5 F2400
;TYPE:Skirt/Brim
;WIDTH:0.42
G1 F1914
G1 X92.028 Y92.088 E.7263
G1 X92.422 Y90.458 E.08431
G1 X93.518 Y89.189 E.0843
G1 X95.593 Y88.523 E.10957
G1 X111.24 Y88.523 E.78668
G1 X112.87 Y88.917 E.08431
G1 X114.139 Y90.013 E.0843
G1 X114.806 Y92.088 E.10958
G1 X114.806 Y107.735 E.78668
G1 X114.411 Y109.365 E.08432
G1 X113.315 Y110.635 E.08434
G1 X111.24 Y111.301 E.10957
G1 X95.593 Y111.301 E.78668
G1 X93.963 Y110.906 E.08432
G1 X92.694 Y109.811 E.08427
G1 X92.028 Y107.735 E.10961
G1 X92.028 Y106.594 E.05737
G1 X92.405 Y106.594 F9000
G1 F1914
G1 X92.405 Y92.088 E.72932
G1 X92.798 Y90.554 E.07962
G1 X93.882 Y89.398 E.07968
G1 X95.593 Y88.9 E.08959
G1 X111.24 Y88.9 E.78668
G1 X112.775 Y89.294 E.07968
G1 X113.931 Y90.378 E.07968
G1 X114.429 Y92.088 E.08955
G1 X114.429 Y107.735 E.78668
G1 X114.035 Y109.27 E.07968
G1 X112.951 Y110.426 E.07968
G1 X111.24 Y110.924 E.08959
G1 X95.593 Y110.924 E.78668
G1 X94.058 Y110.53 E.07968
G1 X92.903 Y109.446 E.07964
G1 X92.405 Y107.735 E.08959
G1 X92.405 Y106.654 E.05435
G1 E-3.5 F3600
;WIPE_START
G1 F7200
G1 X92.405 Y106.594 E-.0285
G1 X92.405 Y103.496 E-1.4715
;WIPE_END
; printing object (Unsaved) id:0 copy 0
G1 X95.803 Y107.525 F9000
G1 E5 F2400
;TYPE:External perimeter
;WIDTH:0.42
G1 F1800
G1 X95.803 Y92.298 E.76557
G1 X111.03 Y92.298 E.76557
G1 X111.03 Y107.525 E.76557
G1 X95.863 Y107.525 E.76255
G1 E-3.5 F3600
;WIPE_START
G1 F7200
G1 X95.803 Y107.525 E-.0285
G1 X95.803 Y104.427 E-1.4715
;WIPE_END
G1 X99.889 Y107.238 F9000
G1 E5 F2400
;TYPE:Internal infill
;WIDTH:0.44
G1 F1914
G1 X97.61 Y107.238 E.12095
G1 X97.797 Y106.506 E.0401
G1 X97.845 Y105.633 E.0464
G1 X97.698 Y104.759 E.04704
G1 X97.277 Y103.886 E.05144
G1 X96.516 Y103.012 E.0615
G1 X96.09 Y102.256 E.04605
G1 X96.09 Y95.883 E.33822
G1 X96.433 Y95.151 E.0429
G1 X97.138 Y94.277 E.05959
G1 X97.574 Y93.404 E.05179
G1 X97.783 Y92.586 E.04481
G1 X104.788 Y92.586 E.37176
G1 X104.833 Y93.404 E.04348
G1 X104.686 Y94.277 E.04698
G1 X104.265 Y95.151 E.05148
G1 X103.504 Y96.024 E.06146
G1 X102.604 Y96.898 E.06658
G1 X101.898 Y97.771 E.05959
G1 X101.463 Y98.645 E.05181
G1 X101.239 Y99.518 E.04783
G1 X101.191 Y100.392 E.04645
G1 X101.338 Y101.265 E.04698
G1 X101.76 Y102.139 E.05151
G1 X102.521 Y103.012 E.06146
G1 X103.421 Y103.886 E.06658
G1 X104.126 Y104.759 E.05955
G1 X104.562 Y105.633 E.05184
G1 X104.785 Y106.506 E.04782
G1 X104.825 Y107.238 E.03891
G1 X110.743 Y107.238 E.31407
G1 X110.743 Y103.301 E.20894
G1 X109.591 Y102.139 E.08684
G1 X108.886 Y101.265 E.05959
G1 X108.451 Y100.392 E.05176
G1 X108.227 Y99.518 E.04788
G1 X108.179 Y98.645 E.0464
G1 X108.326 Y97.771 E.04704
G1 X108.747 Y96.898 E.05144
G1 X110.743 Y94.737 E.15612
G1 X110.743 Y97.016 E.12095
M106 S255
;LAYER_CHANGE
;Z:0.76
;HEIGHT:0.28
;BEFORE_LAYER_CHANGE
G92 E0
;0.76


G1 E-3.5 F3600
;WIPE_START
G1 F7200
G1 X110.743 Y94.737 E-1.08252
G1 X110.147 Y95.383 E-.41748
;WIPE_END
G1 Z.76 F9000
;AFTER_LAYER_CHANGE
;0.76
G1 X111.03 Y92.298
G1 E5 F2400
;TYPE:External perimeter
;WIDTH:0.42
G1 F791
G1 X111.03 Y107.525 E.76557
G1 X95.803 Y107.525 E.76557
G1 X95.803 Y92.298 E.76557
G1 X110.97 Y92.298 E.76255
G1 E-3.5 F3600
;WIPE_START
G1 F7200
G1 X111.03 Y92.298 E-.0285
G1 X111.03 Y95.396 E-1.4715
;WIPE_END
G1 X110.743 Y96.814 F9000
G1 E5 F2400
;TYPE:Internal infill
;WIDTH:0.44
G1 F791
G1 X110.743 Y94.534 E.121
G1 X110.17 Y95.151 E.04469
G1 X109.191 Y96.024 E.06961
G1 X108.771 Y96.461 E.03217
G1 X108.454 Y96.898 E.02865
G1 X108.242 Y97.334 E.02573
G1 X108.118 Y97.771 E.02411
G1 X108.058 Y98.645 E.04649
G1 X108.187 Y99.518 E.04683
G1 X108.491 Y100.392 E.04911
G1 X109.018 Y101.265 E.05412
G1 X109.83 Y102.139 E.06331
G1 X110.743 Y102.953 E.06492
G1 X110.743 Y107.238 E.22741
G1 X104.933 Y107.238 E.30834
G1 X104.825 Y106.506 E.03927
G1 X104.521 Y105.633 E.04906
G1 X103.994 Y104.759 E.05416
G1 X103.182 Y103.886 E.06327
G1 X102.203 Y103.012 E.06965
G1 X101.783 Y102.575 E.03217
G1 X101.466 Y102.139 E.02861
G1 X101.254 Y101.702 E.02578
G1 X101.13 Y101.265 E.02411
G1 X101.071 Y100.392 E.04644
G1 X101.199 Y99.518 E.04688
G1 X101.503 Y98.645 E.04906
G1 X102.031 Y97.771 E.05419
G1 X102.842 Y96.898 E.06324
G1 X104.242 Y95.588 E.10175
G1 X104.558 Y95.151 E.02862
G1 X104.77 Y94.714 E.02578
G1 X104.895 Y94.277 E.02412
G1 X104.954 Y93.404 E.04644
G1 X104.833 Y92.586 E.04388
G1 X97.818 Y92.586 E.37229
G1 X97.533 Y93.404 E.04597
G1 X97.006 Y94.277 E.05412
G1 X96.194 Y95.151 E.06331
G1 X96.09 Y95.685 E.02887
G1 X96.09 Y102.21 E.34629
G1 X97.254 Y103.449 E.09022
G1 X97.57 Y103.886 E.02862
G1 X97.782 Y104.322 E.02573
G1 X97.907 Y104.759 E.02412
G1 X97.966 Y105.633 E.04649
G1 X97.837 Y106.506 E.04683
G1 X97.582 Y107.238 E.04114
G1 X99.862 Y107.238 E.121
;LAYER_CHANGE
;Z:1.04
;HEIGHT:0.28
;BEFORE_LAYER_CHANGE
G92 E0
;1.04


G1 E-3.5 F3600
;WIPE_START
G1 F7200
G1 X97.582 Y107.238 E-1.083
G1 X97.837 Y106.506 E-.36819
G1 X97.852 Y106.404 E-.04881
;WIPE_END
G1 Z1.04 F9000
;AFTER_LAYER_CHANGE
;1.04
G1 X95.803 Y107.525
G1 E5 F2400
;TYPE:External perimeter
;WIDTH:0.42
G1 F799
G1 X95.803 Y92.298 E.76557
G1 X111.03 Y92.298 E.76557
G1 X111.03 Y107.525 E.76557
G1 X95.863 Y107.525 E.76255
G1 E-3.5 F3600
;WIPE_START
G1 F7200
G1 X95.803 Y107.525 E-.0285
G1 X95.803 Y104.427 E-1.4715
;WIPE_END
G1 X99.852 Y107.238 F9000
G1 E5 F2400
;TYPE:Internal infill
;WIDTH:0.44
G1 F799
G1 X97.573 Y107.238 E.12095
G1 X97.897 Y106.506 E.04248
G1 X98.109 Y105.633 E.04768
G1 X98.145 Y104.759 E.04642
G1 X98.073 Y104.322 E.0235
G1 X97.911 Y103.886 E.02468
G1 X97.626 Y103.449 E.02769
G1 X97.202 Y103.012 E.03231
G1 X96.109 Y102.139 E.07424
G1 X96.09 Y95.084 E.37442
G1 X96.883 Y94.277 E.06005
G1 X97.51 Y93.404 E.05704
G1 X97.873 Y92.586 E.04749
G1 X104.898 Y92.586 E.37282
G1 X105.097 Y93.404 E.04468
G1 X105.133 Y94.277 E.04637
G1 X105.061 Y94.714 E.0235
G1 X104.899 Y95.151 E.02473
G1 X104.614 Y95.588 E.02769
G1 X104.189 Y96.024 E.03231
G1 X103.097 Y96.898 E.07423
G1 X102.153 Y97.771 E.06824
G1 X101.526 Y98.645 E.05709
G1 X101.139 Y99.518 E.05068
G1 X100.927 Y100.392 E.04773
G1 X100.891 Y101.265 E.04637
G1 X100.963 Y101.702 E.0235
G1 X101.126 Y102.139 E.02475
G1 X101.41 Y102.575 E.02761
G1 X101.835 Y103.012 E.03235
G1 X102.927 Y103.886 E.07423
G1 X103.871 Y104.759 E.06824
G1 X104.498 Y105.633 E.05709
G1 X104.885 Y106.506 E.05068
G1 X105.063 Y107.238 E.03998
G1 X110.743 Y107.238 E.30144
G1 X110.743 Y102.665 E.24269
G1 X109.141 Y101.265 E.11291
G1 X108.514 Y100.392 E.05704
G1 X108.127 Y99.518 E.05073
G1 X107.915 Y98.645 E.04768
G1 X107.879 Y97.771 E.04642
G1 X107.951 Y97.334 E.0235
G1 X108.114 Y96.898 E.0247
G1 X108.398 Y96.461 E.02766
G1 X108.823 Y96.024 E.03235
G1 X109.915 Y95.151 E.0742
G1 X110.743 Y94.385 E.05986
G1 X110.743 Y96.664 E.12095
;LAYER_CHANGE
;Z:1.32
;HEIGHT:0.28
;BEFORE_LAYER_CHANGE
G92 E0
;1.32


G1 E-3.5 F3600
;WIPE_START
G1 F7200
G1 X110.743 Y94.385 E-1.08252
G1 X110.098 Y94.982 E-.41748
;WIPE_END
G1 Z1.32 F9000
;AFTER_LAYER_CHANGE
;1.32
G1 X111.03 Y92.298
G1 E5 F2400
;TYPE:External perimeter
;WIDTH:0.42
G1 F807
G1 X111.03 Y107.525 E.76557
G1 X95.803 Y107.525 E.76557
G1 X95.803 Y92.298 E.76557
G1 X110.97 Y92.298 E.76255
G1 E-3.5 F3600
;WIPE_START
G1 F7200
G1 X111.03 Y92.298 E-.0285
G1 X111.03 Y95.396 E-1.4715
;WIPE_END
G1 X110.743 Y96.558 F9000
G1 E5 F2400
;TYPE:Internal infill
;WIDTH:0.44
G1 F807
G1 X110.743 Y94.279 E.12095
G1 X110.235 Y94.714 E.03549
G1 X108.353 Y96.024 E.12169
G1 X107.93 Y96.461 E.03228
G1 X107.7 Y96.898 E.02621
G1 X107.609 Y97.334 E.02364
G1 X107.603 Y97.771 E.02319
G1 X107.747 Y98.645 E.04701
G1 X108.046 Y99.518 E.04897
G1 X108.518 Y100.392 E.05272
G1 X109.255 Y101.265 E.06063
G1 X109.765 Y101.702 E.03564
G1 X110.743 Y102.402 E.06383
G1 X110.743 Y107.238 E.25665
G1 X105.216 Y107.238 E.29332
G1 X104.966 Y106.506 E.04105
G1 X104.494 Y105.633 E.05267
G1 X104.167 Y105.196 E.02897
G1 X103.247 Y104.322 E.06735
G1 X101.365 Y103.012 E.12169
G1 X100.942 Y102.575 E.03228
G1 X100.712 Y102.139 E.02616
G1 X100.621 Y101.702 E.02369
G1 X100.615 Y101.265 E.02319
G1 X100.76 Y100.392 E.04697
G1 X101.058 Y99.518 E.04901
G1 X101.53 Y98.645 E.05267
G1 X102.267 Y97.771 E.06067
G1 X102.777 Y97.334 E.03564
G1 X104.659 Y96.024 E.12169
G1 X105.083 Y95.588 E.03228
G1 X105.312 Y95.151 E.02618
G1 X105.403 Y94.714 E.02369
G1 X105.409 Y94.277 E.02319
G1 X105.265 Y93.404 E.04696
G1 X104.985 Y92.586 E.04588
G1 X97.949 Y92.586 E.37341
G1 X97.506 Y93.404 E.04937
G1 X97.179 Y93.841 E.02897
G1 X96.259 Y94.714 E.06731
G1 X96.09 Y95.028 E.01892
G1 X96.09 Y101.779 E.35828
G1 X96.4 Y102.139 E.02521
G1 X97.671 Y103.012 E.08183
G1 X98.095 Y103.449 E.03231
G1 X98.324 Y103.886 E.02618
G1 X98.416 Y104.322 E.02365
G1 X98.421 Y104.759 E.02319
G1 X98.277 Y105.633 E.04701
G1 X97.979 Y106.506 E.04896
G1 X97.583 Y107.238 E.04417
G1 X99.862 Y107.238 E.12095
;LAYER_CHANGE
;Z:1.6
;HEIGHT:0.28
;BEFORE_LAYER_CHANGE
G92 E0
;1.6


G1 E-3.5 F3600
;WIPE_START
G1 F7200
G1 X97.583 Y107.238 E-1.08253
G1 X97.979 Y106.506 E-.39532
G1 X97.994 Y106.462 E-.02215
;WIPE_END
G1 Z1.6 F9000
;AFTER_LAYER_CHANGE
;1.6
G1 X95.803 Y107.525
G1 E5 F2400
;TYPE:External perimeter
;WIDTH:0.42
G1 F825
G1 X95.803 Y92.298 E.76557
G1 X111.03 Y92.298 E.76557
G1 X111.03 Y107.525 E.76557
G1 X95.863 Y107.525 E.76255
G1 E-3.5 F3600
;WIPE_START
G1 F7200
G1 X95.803 Y107.525 E-.0285
G1 X95.803 Y104.427 E-1.4715
;WIPE_END
G1 X99.894 Y107.238 F9000
G1 E5 F2400
;TYPE:Internal infill
;WIDTH:0.44
G1 F825
G1 X97.615 Y107.238 E.12095
G1 X98.084 Y106.506 E.04614
G1 X98.473 Y105.633 E.05072
G1 X98.744 Y104.759 E.04856
G1 X98.863 Y103.886 E.04676
G1 X98.773 Y103.449 E.02368
G1 X98.398 Y103.012 E.03056
G1 X96.09 Y101.741 E.13983
G1 X96.09 Y94.683 E.37457
G1 X96.661 Y94.277 E.03718
G1 X97.143 Y93.841 E.03449
G1 X97.524 Y93.404 E.03077
G1 X98.048 Y92.586 E.05156
G1 X105.096 Y92.586 E.37404
G1 X105.46 Y93.404 E.04752
G1 X105.732 Y94.277 E.04853
G1 X105.851 Y95.151 E.04681
