; generated by PrusaSlicer 2.9.4 on 2026-04-10 at 14:59:17 UTC

; 

; external perimeters extrusion width = 0.42mm
; perimeters extrusion width = 0.44mm
; infill extrusion width = 0.44mm
; solid infill extrusion width = 0.44mm
; top infill extrusion width = 0.40mm
; first layer extrusion width = 0.42mm

M201 X500 Y500 Z100 E5000 ; sets maximum accelerations, mm/sec^2
M203 X500 Y500 Z10 E60 ; sets maximum feedrates, mm / sec
M204 S500 T1000 ; sets acceleration (S) and retract acceleration (R), mm/sec^2
M205 X8.00 Y8.00 Z0.40 E5.00 ; sets the jerk limits, mm/sec
M205 S0 T0 ; sets the minimum extruding and travel feed rate, mm/sec

; printing object (Unsaved) id:0 copy 0
; stop printing object (Unsaved) id:0 copy 0

;TYPE:Custom
G90 ; use absolute coordinates
M83 ; extruder relative mode
M104 S150 ; set temporary nozzle temp to prevent oozing during homing
M140 S60 ; set final bed temp
G4 S30 ; allow partial nozzle warmup
G28 ; home all axis
G1 Z50 F240
G1 X2.0 Y10 F3000
M104 S215 ; set final nozzle temp
M190 S60 ; wait for bed temp to stabilize
M109 S215 ; wait for nozzle temp to stabilize
G1 Z0.28 F240
G92 E0
G1 X2.0 Y140 E10 F1500 ; prime the nozzle
G1 X2.3 Y140 F5000
G92 E0
G1 X2.3 Y10 E10 F1200 ; prime the nozzle
G92 E0
G21 ; set units to millimeters
G90 ; use absolute coordinates
M83 ; use relative distances for extrusion
; Filament gcode
M107
;LAYER_CHANGE
;Z:0.2
;HEIGHT:0.2
G1 E-5 F3600
G1 Z.2 F9000
G1 X98.717 Y95.653
G1 E5 F2400
M204 S500
;TYPE:Skirt/Brim
;WIDTH:0.42
G1 F1200
G1 X100.793 Y94.987 E.08203
G1 X110.793 Y94.987 E.37625
G1 X112.423 Y95.381 E.0631
G1 X113.692 Y96.477 E.06309
G1 X114.358 Y98.553 E.08203
G1 X114.358 Y108.553 E.37625
G1 X113.964 Y110.183 E.0631
G1 X112.868 Y111.452 E.06309
G1 X110.793 Y112.118 E.082
G1 X100.793 Y112.118 E.37625
G1 X99.163 Y111.724 E.0631
G1 X97.893 Y110.628 E.06312
G1 X97.227 Y108.553 E.082
G1 X97.227 Y98.553 E.37625
G1 X97.621 Y96.923 E.0631
G1 X98.678 Y95.699 E.06085
G1 X98.974 Y95.976 F9000
G1 F1200
G1 X99.082 Y95.862 E.00591
G1 X100.793 Y95.364 E.06705
G1 X110.793 Y95.364 E.37625
G1 X112.327 Y95.758 E.05959
G1 X113.483 Y96.842 E.05963
G1 X113.981 Y98.553 E.06705
G1 X113.981 Y108.553 E.37625
G1 X113.587 Y110.087 E.05959
G1 X112.503 Y111.243 E.05963
G1 X110.793 Y111.741 E.06701
G1 X100.793 Y111.741 E.37625
G1 X99.258 Y111.347 E.05963
G1 X98.102 Y110.263 E.05963
G1 X97.604 Y108.553 E.06701
G1 X97.604 Y98.553 E.37625
G1 X97.998 Y97.018 E.05963
G1 X98.933 Y96.02 E.05145
G1 E-3.5 F3600
;WIPE_START
G1 F7200
G1 X98.974 Y95.976 E-.02857
G1 X99.082 Y95.862 E-.07459
G1 X100.793 Y95.364 E-.84645
G1 X101.952 Y95.364 E-.55039
;WIPE_END
; printing object (Unsaved) id:0 copy 0
G1 X101.103 Y98.863 F9000
G1 E5 F2400
;TYPE:External perimeter
;WIDTH:0.419999
G1 F1200
G1 X110.483 Y98.863 E.35292
G1 X110.483 Y108.243 E.35292
G1 X101.103 Y108.243 E.35292
G1 X101.103 Y98.923 E.35067
G1 E-3.5 F3600
;WIPE_START
G1 F7200
G1 X101.103 Y98.863 E-.0285
G1 X104.201 Y98.863 E-1.4715
;WIPE_END
G1 X110.362 Y99.755 F9000
G1 E5 F2400
;TYPE:Solid infill
;WIDTH:0.424607
G1 F1200
G1 X109.76 Y99.153 E.03242
G1 X109.22 Y99.153 E.02057
G1 X110.192 Y100.125 E.05235
G1 X110.192 Y100.665 E.02057
G1 X108.68 Y99.153 E.08144
G1 X108.14 Y99.153 E.02057
G1 X110.192 Y101.205 E.11052
G1 X110.192 Y101.745 E.02057
G1 X107.6 Y99.153 E.13961
G1 X107.061 Y99.153 E.02053
G1 X110.192 Y102.285 E.16866
G1 X110.192 Y102.824 E.02053
G1 X106.521 Y99.153 E.19772
G1 X105.981 Y99.153 E.02057
G1 X110.192 Y103.364 E.22681
G1 X110.192 Y103.904 E.02057
G1 X105.441 Y99.153 E.25589
G1 X104.901 Y99.153 E.02057
G1 X110.192 Y104.444 E.28497
G1 X110.192 Y104.983 E.02053
G1 X104.362 Y99.153 E.314
G1 X103.822 Y99.153 E.02057
G1 X110.192 Y105.523 E.34309
G1 X110.192 Y106.063 E.02057
G1 X103.282 Y99.153 E.37217
G1 X102.742 Y99.153 E.02057
G1 X110.192 Y106.603 E.40126
G1 X110.192 Y107.143 E.02057
G1 X102.202 Y99.153 E.43034
G1 X101.663 Y99.153 E.02053
G1 X110.192 Y107.682 E.45937
G1 X110.192 Y107.952 E.01028
G1 X109.922 Y107.952 E.01028
G1 X101.393 Y99.423 E.45937
G1 X101.393 Y99.963 E.02057
G1 X109.382 Y107.952 E.43029
G1 X108.843 Y107.952 E.02053
G1 X101.393 Y100.502 E.40126
G1 X101.393 Y101.042 E.02057
G1 X108.303 Y107.952 E.37217
G1 X107.763 Y107.952 E.02057
G1 X101.393 Y101.582 E.34309
G1 X101.393 Y102.122 E.02057
G1 X107.223 Y107.952 E.314
G1 X106.683 Y107.952 E.02057
G1 X101.393 Y102.662 E.28492
G1 X101.393 Y103.201 E.02053
G1 X106.144 Y107.952 E.25589
G1 X105.604 Y107.952 E.02057
G1 X101.393 Y103.741 E.22681
G1 X101.393 Y104.281 E.02057
G1 X105.064 Y107.952 E.19772
G1 X104.524 Y107.952 E.02057
G1 X101.393 Y104.821 E.16864
G1 X101.393 Y105.361 E.02057
G1 X103.985 Y107.952 E.13958
G1 X103.445 Y107.952 E.02057
G1 X101.393 Y105.9 E.11052
G1 X101.393 Y106.44 E.02057
G1 X102.905 Y107.952 E.08144
G1 X102.365 Y107.952 E.02057
G1 X101.393 Y106.98 E.05235
G1 X101.393 Y107.52 E.02057
G1 X101.995 Y108.122 E.03242
M106 S127.5
;LAYER_CHANGE
;Z:0.48
;HEIGHT:0.28
;BEFORE_LAYER_CHANGE
G92 E0
;0.48


G1 E-3.5 F3600
;WIPE_START
G1 F7200
G1 X101.393 Y107.52 E-.40439
G1 X101.393 Y106.98 E-.2565
G1 X102.365 Y107.952 E-.65294
G1 X102.757 Y107.952 E-.18617
;WIPE_END
G1 Z.48 F9000
;AFTER_LAYER_CHANGE
;0.48
; stop printing object (Unsaved) id:0 copy 0
G1 X101.995 Y112.118
G1 E5 F2400
;TYPE:Skirt/Brim
;WIDTH:0.42
G1 F1203
G1 X100.793 Y112.118 E.06043
G1 X99.163 Y111.724 E.08431
G1 X97.893 Y110.628 E.08434
G1 X97.227 Y108.553 E.10957
G1 X97.227 Y98.553 E.50277
G1 X97.621 Y96.923 E.08431
G1 X98.717 Y95.653 E.08434
G1 X100.793 Y94.987 E.10961
G1 X110.793 Y94.987 E.50277
G1 X112.423 Y95.381 E.08431
G1 X113.692 Y96.477 E.0843
G1 X114.358 Y98.553 E.10961
G1 X114.358 Y108.553 E.50277
G1 X113.964 Y110.183 E.08431
G1 X112.868 Y111.452 E.0843
G1 X110.793 Y112.118 E.10957
G1 X102.055 Y112.118 E.43932
G1 X102.055 Y111.741 F9000
G1 F1203
G1 X100.793 Y111.741 E.06345
G1 X99.258 Y111.347 E.07968
G1 X98.102 Y110.263 E.07968
G1 X97.604 Y108.553 E.08955
G1 X97.604 Y98.553 E.50277
G1 X97.998 Y97.018 E.07968
G1 X99.082 Y95.862 E.07968
G1 X100.793 Y95.364 E.08959
G1 X110.793 Y95.364 E.50277
G1 X112.327 Y95.758 E.07963
G1 X113.483 Y96.842 E.07968
G1 X113.981 Y98.553 E.08959
G1 X113.981 Y108.553 E.50277
G1 X113.587 Y110.087 E.07963
G1 X112.503 Y111.243 E.07968
G1 X110.793 Y111.741 E.08955
G1 X102.115 Y111.741 E.4363
G1 E-3.5 F3600
;WIPE_START
G1 F7200
G1 X102.055 Y111.741 E-.0285
G1 X100.793 Y111.741 E-.59945
G1 X99.258 Y111.347 E-.75276
G1 X99.075 Y111.175 E-.11929
;WIPE_END
; printing object (Unsaved) id:0 copy 0
G1 X101.003 Y108.343 F9000
G1 E5 F2400
;TYPE:External perimeter
;WIDTH:0.42
G1 F1203
G1 X101.003 Y98.763 E.48165
G1 X110.583 Y98.763 E.48165
G1 X110.583 Y108.343 E.48165
G1 X101.063 Y108.343 E.47864
G1 E-3.5 F3600
;WIPE_START
G1 F7200
G1 X101.003 Y108.343 E-.0285
G1 X101.003 Y105.245 E-1.4715
;WIPE_END
G1 X107.007 Y108.055 F9000
G1 E5 F2400
;TYPE:Internal infill
;WIDTH:0.44
G1 F1203
G1 X104.727 Y108.055 E.121
G1 X104.837 Y107.222 E.04459
G1 X104.785 Y106.506 E.0381
G1 X104.562 Y105.633 E.04782
G1 X104.126 Y104.759 E.05184
G1 X103.421 Y103.886 E.05955
G1 X102.521 Y103.012 E.06658
G1 X101.76 Y102.139 E.06146
G1 X101.338 Y101.265 E.05151
G1 X101.29 Y100.975 E.0156
G1 X101.29 Y99.05 E.10216
G1 X108.201 Y99.05 E.36677
G1 X108.227 Y99.518 E.02488
G1 X108.451 Y100.392 E.04788
G1 X108.886 Y101.265 E.05176
G1 X109.591 Y102.139 E.05959
G1 X110.295 Y102.822 E.05206
G1 X110.295 Y105.101 E.12095
M106 S255
;LAYER_CHANGE
;Z:0.76
;HEIGHT:0.28
;BEFORE_LAYER_CHANGE
G92 E0
;0.76


G1 E-3.5 F3600
;WIPE_START
G1 F7200
G1 X110.295 Y102.822 E-1.08252
G1 X109.665 Y102.21 E-.41748
;WIPE_END
G1 Z.76 F9000
;AFTER_LAYER_CHANGE
;0.76
G1 X110.583 Y108.343
G1 E5 F2400
;TYPE:External perimeter
;WIDTH:0.42
G1 F600
G1 X101.003 Y108.343 E.48165
G1 X101.003 Y98.763 E.48165
G1 X110.583 Y98.763 E.48165
G1 X110.583 Y108.283 E.47864
G1 E-3.5 F3600
;WIPE_START
G1 F7200
G1 X110.583 Y108.343 E-.0285
G1 X107.485 Y108.343 E-1.4715
;WIPE_END
G1 X107.195 Y108.055 F9000
G1 E5 F2400
;TYPE:Internal infill
;WIDTH:0.44
G1 F600
G1 X104.915 Y108.055 E.121
G1 X104.943 Y107.222 E.04423
G1 X104.825 Y106.506 E.03851
G1 X104.521 Y105.633 E.04906
G1 X103.994 Y104.759 E.05416
G1 X103.182 Y103.886 E.06327
G1 X101.783 Y102.575 E.10175
G1 X101.466 Y102.139 E.02861
G1 X101.29 Y101.775 E.02146
G1 X101.29 Y99.05 E.14462
G1 X108.118 Y99.05 E.36237
G1 X108.187 Y99.518 E.02511
G1 X108.491 Y100.392 E.04911
G1 X109.018 Y101.265 E.05412
G1 X109.83 Y102.139 E.06331
G1 X110.295 Y102.554 E.03308
G1 X110.295 Y104.834 E.121
;LAYER_CHANGE
;Z:1.04
;HEIGHT:0.28
;BEFORE_LAYER_CHANGE
G92 E0
;1.04


G1 E-3.5 F3600
;WIPE_START
G1 F7200
G1 X110.295 Y102.554 E-1.083
G1 X109.83 Y102.139 E-.29605
G1 X109.657 Y101.952 E-.12095
;WIPE_END
G1 Z1.04 F9000
;AFTER_LAYER_CHANGE
;1.04
G1 X110.583 Y108.343
G1 E5 F2400
;TYPE:External perimeter
;WIDTH:0.42
G1 F600
G1 X101.003 Y108.343 E.48165
G1 X101.003 Y98.763 E.48165
G1 X110.583 Y98.763 E.48165
G1 X110.583 Y108.283 E.47864
G1 E-3.5 F3600
;WIPE_START
G1 F7200
G1 X110.583 Y108.343 E-.0285
G1 X107.485 Y108.343 E-1.4715
;WIPE_END
G1 X107.411 Y108.055 F9000
G1 E5 F2400
;TYPE:Internal infill
;WIDTH:0.44
G1 F600
G1 X105.132 Y108.055 E.12095
G1 X105.071 Y107.222 E.04433
G1 X104.885 Y106.506 E.03926
G1 X104.498 Y105.633 E.05068
G1 X103.871 Y104.759 E.05709
G1 X102.927 Y103.886 E.06824
G1 X101.835 Y103.012 E.07423
G1 X101.29 Y102.39 E.04389
G1 X101.29 Y99.05 E.17726
G1 X108.013 Y99.05 E.3568
G1 X108.127 Y99.518 E.02556
G1 X108.514 Y100.392 E.05073
G1 X109.141 Y101.265 E.05704
G1 X110.295 Y102.307 E.08252
G1 X110.295 Y104.587 E.121
;LAYER_CHANGE
;Z:1.32
;HEIGHT:0.28
;BEFORE_LAYER_CHANGE
G92 E0
;1.32


G1 E-3.5 F3600
;WIPE_START
G1 F7200
G1 X110.295 Y102.307 E-1.083
G1 X109.643 Y101.719 E-.417
;WIPE_END
G1 Z1.32 F9000
;AFTER_LAYER_CHANGE
;1.32
G1 X110.583 Y108.343
G1 E5 F2400
;TYPE:External perimeter
;WIDTH:0.42
G1 F600
G1 X101.003 Y108.343 E.48165
G1 X101.003 Y98.763 E.48165
G1 X110.583 Y98.763 E.48165
G1 X110.583 Y108.283 E.47864
G1 E-3.5 F3600
;WIPE_START
G1 F7200
G1 X110.583 Y108.343 E-.0285
G1 X107.485 Y108.343 E-1.4715
;WIPE_END
G1 X107.661 Y108.055 F9000
G1 E5 F2400
;TYPE:Internal infill
;WIDTH:0.44
G1 F600
G1 X105.382 Y108.055 E.12095
G1 X105.222 Y107.222 E.04502
G1 X104.966 Y106.506 E.04035
G1 X104.494 Y105.633 E.05267
G1 X104.167 Y105.196 E.02897
G1 X103.247 Y104.322 E.06735
G1 X101.29 Y102.934 E.12733
G1 X101.29 Y99.05 E.20613
G1 X107.886 Y99.05 E.35006
G1 X108.046 Y99.518 E.02625
G1 X108.518 Y100.392 E.05272
G1 X108.845 Y100.828 E.02892
G1 X109.255 Y101.265 E.0318
G1 X110.295 Y102.081 E.07016
G1 X110.295 Y104.361 E.121
;LAYER_CHANGE
;Z:1.6
;HEIGHT:0.28
;BEFORE_LAYER_CHANGE
G92 E0
;1.6


G1 E-3.5 F3600
;WIPE_START
G1 F7200
G1 X110.295 Y102.081 E-1.083
G1 X109.605 Y101.539 E-.417
;WIPE_END
G1 Z1.6 F9000
;AFTER_LAYER_CHANGE
;1.6
G1 X110.583 Y108.343
G1 E5 F2400
;TYPE:External perimeter
;WIDTH:0.42
G1 F600
G1 X101.003 Y108.343 E.48165
G1 X101.003 Y98.763 E.48165
G1 X110.583 Y98.763 E.48165
G1 X110.583 Y108.283 E.47864
G1 E-3.5 F3600
;WIPE_START
G1 F7200
G1 X110.583 Y108.343 E-.0285
G1 X107.485 Y108.343 E-1.4715
;WIPE_END
G1 X107.954 Y108.055 F9000
G1 E5 F2400
;TYPE:Internal infill
;WIDTH:0.44
G1 F600
G1 X105.674 Y108.055 E.121
G1 X105.4 Y107.222 E.04654
G1 X105.072 Y106.506 E.0418
G1 X104.512 Y105.633 E.05504
G1 X104.131 Y105.196 E.03077
G1 X103.649 Y104.759 E.03453
G1 X103.035 Y104.322 E.04
G1 X101.29 Y103.389 E.10501
G1 X101.29 Y99.05 E.23027
G1 X107.732 Y99.05 E.34188
G1 X107.941 Y99.518 E.0272
G1 X108.5 Y100.392 E.05506
G1 X108.882 Y100.828 E.03076
G1 X109.363 Y101.265 E.03449
G1 X110.295 Y101.883 E.05935
G1 X110.295 Y104.162 E.12095
;LAYER_CHANGE
;Z:1.88
;HEIGHT:0.28
;BEFORE_LAYER_CHANGE
G92 E0
;1.88


G1 E-3.5 F3600
;WIPE_START
G1 F7200
G1 X110.295 Y101.883 E-1.08253
G1 X109.563 Y101.397 E-.41747
;WIPE_END
G1 Z1.88 F9000
;AFTER_LAYER_CHANGE
;1.88
G1 X110.583 Y108.343
G1 E5 F2400
;TYPE:External perimeter
;WIDTH:0.42
G1 F600
G1 X101.003 Y108.343 E.48165
G1 X101.003 Y98.763 E.48165
G1 X110.583 Y98.763 E.48165
G1 X110.583 Y108.283 E.47864
G1 E-3.5 F3600
;WIPE_START
G1 F7200
G1 X110.583 Y108.343 E-.0285
G1 X107.485 Y108.343 E-1.4715
;WIPE_END
G1 X105.268 Y99.05 F9000
G1 E5 F2400
;TYPE:Internal infill
;WIDTH:0.44
G1 F600
G1 X107.547 Y99.05 E.12095
G1 X108.253 Y100.15 E.06937
G1 X108.69 Y100.635 E.03465
G1 X109.127 Y101.019 E.03087
G1 X110.295 Y101.717 E.07221
G1 X110.295 Y108.055 E.33636
G1 X106.016 Y108.055 E.22709
G1 X105.196 Y106.495 E.09353
G1 X104.759 Y105.875 E.04026
G1 X104.322 Y105.389 E.03469
G1 X103.886 Y105.005 E.03083
G1 X103.012 Y104.441 E.0552
G1 X102.139 Y104.047 E.05083
G1 X101.29 Y103.777 E.04728
G1 X101.29 Y101.497 E.121
;LAYER_CHANGE
;Z:2.16
;HEIGHT:0.28
;BEFORE_LAYER_CHANGE
G92 E0
;2.16


G1 E-3.5 F3600
;WIPE_START
G1 F7200
G1 X101.29 Y103.777 E-1.083
G1 X102.126 Y104.043 E-.417
;WIPE_END
G1 Z2.16 F9000
;AFTER_LAYER_CHANGE
;2.16
G1 X101.003 Y98.763
G1 E5 F2400
;TYPE:External perimeter
;WIDTH:0.42
G1 F600
G1 X110.583 Y98.763 E.48165
G1 X110.583 Y108.343 E.48165
G1 X101.003 Y108.343 E.48165
G1 X101.003 Y98.823 E.47864
G1 E-3.5 F3600
;WIPE_START
G1 F7200
G1 X101.003 Y98.763 E-.0285
G1 X104.101 Y98.763 E-1.4715
;WIPE_END
G1 X101.29 Y101.819 F9000
G1 E5 F2400
;TYPE:Internal infill
;WIDTH:0.44
G1 F600
G1 X101.29 Y104.099 E.121
G1 X102.139 Y104.244 E.04571
G1 X103.012 Y104.547 E.04904
G1 X103.886 Y105.024 E.05284
G1 X104.322 Y105.354 E.02902
G1 X105.196 Y106.281 E.06761
G1 X106.421 Y108.055 E.11441
G1 X110.295 Y108.055 E.2056
G1 X110.295 Y101.58 E.34363
G1 X110 Y101.477 E.01658
G1 X109.127 Y101 E.0528
G1 X108.69 Y100.671 E.02903
G1 X107.816 Y99.743 E.06765
G1 X107.327 Y99.05 E.04501
G1 X105.048 Y99.05 E.12095
;LAYER_CHANGE
;Z:2.44
;HEIGHT:0.28
;BEFORE_LAYER_CHANGE
G92 E0
;2.44


G1 E-3.5 F3600
;WIPE_START
G1 F7200
G1 X107.327 Y99.05 E-1.08252
G1 X107.816 Y99.743 E-.40287
G1 X107.837 Y99.765 E-.01461
;WIPE_END
G1 Z2.44 F9000
;AFTER_LAYER_CHANGE
;2.44
G1 X101.003 Y98.763
G1 E5 F2400
;TYPE:External perimeter
;WIDTH:0.42
G1 F600
G1 X110.583 Y98.763 E.48165
G1 X110.583 Y108.343 E.48165
G1 X101.003 Y108.343 E.48165
G1 X101.003 Y98.823 E.47864
G1 E-3.5 F3600
;WIPE_START
G1 F7200
G1 X101.003 Y98.763 E-.0285
G1 X104.101 Y98.763 E-1.4715
;WIPE_END
G1 X101.29 Y102.094 F9000
G1 E5 F2400
;TYPE:Internal infill
;WIDTH:0.44
G1 F600
G1 X101.29 Y104.373 E.12095
G1 X102.139 Y104.414 E.04511
G1 X103.012 Y104.63 E.04773
G1 X103.886 Y105.021 E.05081
G1 X104.759 Y105.653 E.0572
G1 X105.633 Y106.604 E.06855
G1 X106.506 Y107.704 E.07453
G1 X106.868 Y108.055 E.02676
G1 X110.295 Y108.055 E.18187
G1 X110.295 Y101.468 E.34958
G1 X110 Y101.395 E.01613
G1 X109.127 Y101.003 E.05079
G1 X108.253 Y100.372 E.05721
G1 X107.085 Y99.05 E.09362
G1 X104.806 Y99.05 E.12095
;LAYER_CHANGE
;Z:2.72
;HEIGHT:0.28
;BEFORE_LAYER_CHANGE
G92 E0
;2.72


G1 E-3.5 F3600
;WIPE_START
G1 F7200
G1 X107.085 Y99.05 E-1.08253
G1 X107.667 Y99.708 E-.41747
;WIPE_END
G1 Z2.72 F9000
;AFTER_LAYER_CHANGE
;2.72
G1 X101.003 Y98.763
G1 E5 F2400
;TYPE:External perimeter
;WIDTH:0.42
G1 F600
G1 X110.583 Y98.763 E.48165
G1 X110.583 Y108.343 E.48165
G1 X101.003 Y108.343 E.48165
G1 X101.003 Y98.823 E.47864
G1 E-3.5 F3600
;WIPE_START
G1 F7200
G1 X101.003 Y98.763 E-.0285
G1 X104.101 Y98.763 E-1.4715
;WIPE_END
G1 X101.29 Y102.331 F9000
G1 E5 F2400
;TYPE:Internal infill
;WIDTH:0.44
G1 F600
G1 X101.29 Y104.611 E.121
G1 X102.139 Y104.558 E.04514
G1 X103.012 Y104.69 E.04686
G1 X103.886 Y104.999 E.0492
G1 X104.759 Y105.531 E.05426
G1 X105.633 Y106.348 E.06349
G1 X106.506 Y107.332 E.06981
G1 X106.943 Y107.753 E.0322
G1 X107.362 Y108.055 E.02741
G1 X110.295 Y108.055 E.15566
G1 X110.295 Y101.379 E.3543
G1 X110 Y101.334 E.01584
G1 X109.127 Y101.025 E.04915
G1 X108.253 Y100.494 E.05427
G1 X107.38 Y99.676 E.06349
G1 X106.823 Y99.05 E.04447
G1 X104.544 Y99.05 E.12095
;LAYER_CHANGE
;Z:3
;HEIGHT:0.28
;BEFORE_LAYER_CHANGE
G92 E0
;3


G1 E-3.5 F3600
;WIPE_START
G1 F7200
G1 X106.823 Y99.05 E-1.08253
G1 X107.38 Y99.676 E-.39802
G1 X107.41 Y99.704 E-.01945
;WIPE_END
G1 Z3 F9000
;AFTER_LAYER_CHANGE
;3
G1 X101.003 Y98.763
G1 E5 F2400
;TYPE:External perimeter
;WIDTH:0.42
G1 F600
